!!!!SEGMENT: pl-wtm--r-1555--003_stefani-jozef--msza-no-14-graduale.krn
!!!cenid: 18xx:1822
!!!COM: Stefani, Józef
!!!COM-rismID: pe30024097
!!!CDT: 1800/04/16-1876/03/19
!!!CNT: Polish
!!!OPR: Msza No 14
!!!OTL: Graduale
!!!OMV: 003
!!!PDT:
!!!AGN: Sacred; Mass
!!!SMS-siglum: PL-Wtm
!!!SMS-shelfmark: R 1555
!!!SMS-shelfwork: 001-003 M
!!!SMS-variant:
!!!SMS-altvar:
!!!NIFC-rismSourceID: 1001115185
!!!NIFC-rismChildID: 1001115185
!!!NIFC-islandoraID: pl-wtm:26798
!!!URL-pdf-islandora: https://repozytorium.nifc.pl/islandora/object/pl-wtm%3A26798/datastream/PDF/view
!!!URL-scan: https://polish.musicsources.pl/pl/lokalizacje/galeria/rekopisy/6356 @EN{Scan on Polish Music Sources Website} @PL{Skany w portalu Dziedzictwo Muzyki Polskiej w otwartym dostępie}
!!!ONB-nifc: UWAGA: części Mszy: 1. Kyrie, 2. Gloria, 3. Graduale, 4. Credo, 5. Offertorium, 6. Sanctus, 7. Benedictus, 8. Agnus Dei, 9. Dona nobis
!!!AIN: 1 alto 1 cbass 1 cello 1 clars 1 cor 1 empty 1 fagot 1 flt 1 oboe 1 soprn 1 tenor 1 timpa 1 tromp 3 tromt 1 viola 2 violn
!!!key:
**kern	**dynam	**kern	**dynam	**kern	**dynam	**kern	**dynam	**kern	**dynam	**kern	**dynam	**kern	**text	**dynam	**kern	**text	**dynam	**kern	**dynam	**kern	**text	**dynam	**kern	**dynam	**kern	**dynam	**kern	**dynam	**kern	**dynam	**kern	**dynam	**kern	**dynam	**kern	**dynam	**kern	**dynam	**kern	**dynam
*part19	*part19	*part18	*part18	*part17	*part17	*part16	*part16	*part15	*part15	*part14	*part14	*part13	*part13	*part13	*part12	*part12	*part12	*part11	*part11	*part10	*part10	*part10	*part9	*part9	*part8	*part8	*part7	*part7	*part6	*part6	*part5	*part5	*part4	*part4	*part3	*part3	*part2	*part2	*part1	*part1
*staff19	*	*staff18	*	*staff17	*	*staff16	*	*staff15	*	*staff14	*	*staff13	*staff13	*	*staff12	*staff12	*	*staff11	*	*staff10	*staff10	*	*staff9	*	*staff8	*	*staff7	*	*staff6	*	*staff5	*	*staff4	*	*staff3	*	*staff2	*	*staff1	*
*Itimpa	*	*Icbass	*	*Icello	*	*Iviola	*	*Ivioln	*	*Ivioln	*	*Iempty	*	*	*Itenor	*	*	*Ialto	*	*Isoprn	*	*	*Itromt	*	*Itromt	*	*Itromt	*	*Itromp	*	*Ifagot	*	*Icor	*	*Iclars	*	*Ioboe	*	*Iflt	*
*I"Timpani c. g	*	*I"C[ontra]: Baſsi	*	*I"Violoncelli	*	*I"Viole	*	*I"[Violini]	*	*I"Violini	*	*I"Baſsi	*	*	*I"Tenori	*	*	*I"Alto	*	*I"Soprani	*	*	*I"[Tromboni]	*	*I"[Tromboni]	*	*I"Tromboni	*	*I"Trombe in C	*	*I"Fagotti	*	*I"Corni in C	*	*I"Clarinetti in C	*	*I"Oboe	*	*I"Flautti	*
*I'timp	*	*I'cb	*	*I'vlc	*	*I'vla	*	*I'vl 2	*	*I'vl 1	*	*I'B	*	*	*I'T	*	*	*I'A	*	*I'S	*	*	*I'[trb 3]	*	*I'[trb 2]	*	*I'trb 1	*	*I'tr in C	*	*I'fag	*	*I'cor in C	*	*I'cl in C	*	*I'ob	*	*I'fl	*
*stria1	*	*	*	*	*	*	*	*	*	*	*	*	*	*	*	*	*	*	*	*	*	*	*	*	*	*	*	*	*	*	*	*	*	*	*	*	*	*	*	*
*clefF4	*	*clefF4	*	*clefF4	*	*clefC3	*	*clefG2	*	*clefG2	*	*clefF4	*	*	*clefC4	*	*	*clefC3	*	*clefG2	*	*	*clefF4	*	*clefC4	*	*clefC3	*	*clefG2	*	*clefF4	*	*clefG2	*	*clefG2	*	*clefG2	*	*clefG2	*
*	*	*Trd0c0	*	*	*	*	*	*	*	*	*	*	*	*	*	*	*	*	*	*	*	*	*	*	*	*	*	*	*	*	*	*	*Trd0c0	*	*	*	*	*	*	*
*k[f#]	*	*k[f#]	*	*k[f#]	*	*k[f#]	*	*k[f#]	*	*k[f#]	*	*k[f#]	*	*	*k[f#]	*	*	*k[f#]	*	*k[f#]	*	*	*k[f#]	*	*k[f#]	*	*k[f#]	*	*k[f#]	*	*k[f#]	*	*k[f#]	*	*k[f#]	*	*k[f#]	*	*k[f#]	*
*C:	*	*C:	*	*C:	*	*C:	*	*C:	*	*C:	*	*C:	*	*	*C:	*	*	*C:	*	*C:	*	*	*C:	*	*C:	*	*C:	*	*C:	*	*C:	*	*C:	*	*C:	*	*C:	*	*C:	*
*M4/4	*	*M4/4	*	*M4/4	*	*M4/4	*	*M4/4	*	*M4/4	*	*M4/4	*	*	*M4/4	*	*	*M4/4	*	*M4/4	*	*	*M4/4	*	*M4/4	*	*M4/4	*	*M4/4	*	*M4/4	*	*M4/4	*	*M4/4	*	*M4/4	*	*M4/4	*
*met(c)	*	*met(c)	*	*met(c)	*	*met(c)	*	*met(c)	*	*met(c)	*	*met(c)	*	*	*met(c)	*	*	*met(c)	*	*met(c)	*	*	*met(c)	*	*met(c)	*	*met(c)	*	*met(c)	*	*met(c)	*	*met(c)	*	*met(c)	*	*met(c)	*	*met(c)	*
*	*	*	*	*	*	*	*	*	*	*	*	*	*	*	*	*	*	*	*	*	*	*	*	*	*	*	*	*	*^	*	*	*	*	*	*	*	*	*	*	*
!	!	!	!	!	!	!	!	!	!	!	!	!	!	!	!	!	!LO:DY:a	!	!	!	!	!	!	!	!	!	!	!	!	!	!	!	!	!	!	!	!	!	!	!LO:TX:a:i:t=Maestoso.	!
4ryy	.	4G\	f	4G\yy	fyy	4G/	f	4r	.	4r	.	4G\	.	.	4G/	Po-	f	4r	.	4r	.	.	4GG\ 4G	.	4G/	.	4g\	f	4g/	4g\	.	4GG/ 4G	f	4r	.	4r	.	4r	.	4r	.
=1	=1	=1	=1	=1	=1	=1	=1	=1	=1	=1	=1	=1	=1	=1	=1	=1	=1	=1	=1	=1	=1	=1	=1	=1	=1	=1	=1	=1	=1	=1	=1	=1	=1	=1	=1	=1	=1	=1	=1	=1	=1
*	*	*	*	*	*	*	*	*	*	*	*	*	*	*	*	*	*	*	*	*	*	*	*^	*	*	*	*	*	*	*	*	*	*	*	*	*	*	*	*	*	*
!	!	!	!	!	!	!	!	!	!	!	!	!	!	!	!	!	!	!	!	!	!	!	!	!	!	!	!	!	!	!	!	!	!	!	!	!	!	!	!	!	!LO:TX:a:t=Graduale.	!
1ryy	.	4.G\	.	4.G\yy	.	4.G/	.	1r	.	1r	.	4.G\	.	.	4.G/	-wstań-	.	1r	.	1r	.	.	4.GG\ 4.G	4.ryy	.	4.G/	.	4.g\	.	4.g/	4.g\	.	4.GG/ 4.G	.	1r	.	1r	.	1r	.	1r	.
.	.	8D\	.	8D\yy	.	8d\	.	.	.	.	.	8D\	.	.	8d\	-cie	.	.	.	.	.	.	8D/	8D\	.	8d\	.	8dd\	.	8dd/	8dd\	.	8D\ 8d	.	.	.	.	.	.	.	.	.
.	.	4BB/	.	4BB/yy	.	4B/	.	.	.	.	.	4BB/	.	.	4B\	świa-	.	.	.	.	.	.	4BB/	4BB\	.	4B\	.	4b\	.	4b/	4b\	.	4BB\ 4B	.	.	.	.	.	.	.	.	.
.	.	8.AA/L	.	8.AA/Lyy	.	8.A/L	.	.	.	.	.	8.AA/	.	.	8.A/	-tło-	.	.	.	.	.	.	8.AA/L	8.AA\L	.	8.A/L	.	8.a\L	.	8.a/L	8.a\L	.	8.AA\L 8.A	.	.	.	.	.	.	.	.	.
!	!	!	!	!	!	!	!	!	!	!	!LO:DY:b	!	!	!	!	!	!	!	!	!	!	!	!	!	!	!	!	!	!	!	!	!	!	!	!	!	!	!	!	!	!	!
.	.	16GG/Jk	.	16GG/Jkyy	.	16G/Jk	.	.	.	.	f	16GG/	.	.	16G/	-ści	.	.	.	.	.	.	16GG/Jk	16GG\Jk	.	16G/Jk	.	16g\Jk	.	16g/Jk	16g\Jk	.	16GG\Jk 16G	.	.	.	.	.	.	.	.	.
*	*	*	*	*	*	*	*	*	*	*	*	*	*	*	*	*	*	*	*	*	*	*	*v	*v	*	*	*	*	*	*	*	*	*	*	*	*	*	*	*	*	*	*
=2	=2	=2	=2	=2	=2	=2	=2	=2	=2	=2	=2	=2	=2	=2	=2	=2	=2	=2	=2	=2	=2	=2	=2	=2	=2	=2	=2	=2	=2	=2	=2	=2	=2	=2	=2	=2	=2	=2	=2	=2	=2
*	*	*	*	*	*	*	*	*	*	*	*	*	*	*	*	*	*	*	*	*^	*	*	*	*	*	*	*	*	*	*	*	*	*	*^	*	*^	*	*	*	*	*
*	*	*	*	*	*	*2\right	*	*	*	*	*	*	*	*	*2\right	*	*	*2\right	*	*	*2\right	*	*	*	*	*2\right	*	*2\right	*	*	*2\right	*	*	*	*	*2\right	*	*	*2\right	*	*2\right	*	*	*
!	!	!	!	!	!	!	!	!	!	!	!LO:HP:b	!	!	!	!	!	!	!	!LO:DY:a	!	!	!	!	!	!	!	!	!	!	!	!	!	!	!	!	!	!	!	!	!	!	!	!	!
1ryy	.	(4.C/	.	(4.C/yy	.	2G\ 2g	.	2e/ 2cc	.	(4.ee\	>	(4.C/	.	.	2c\	Sy-	.	2g\	f	(4.ee/	2cc\	Sy-	.	4.C\	f	2c\	.	2g\	.	2ee/	2cc\	.	4.CC/ 4.C	.	2ee/	2cc\	f >	(4.ee/	2cc\	>	(2ccc\	.	(4.eee\	f >
.	.	8E\)	.	8E\)yy	.	.	.	.	.	8gg\)	.	8E\)	.	.	.	.	.	.	.	8gg/)	.	-ny	.	8E\	.	.	.	.	.	.	.	.	8EE/ 8E	.	.	.	.	8gg/	.	.	.	.	8ggg\	.
.	.	4G\	.	4G\yy	.	4G\ 4g	.	4d/ 4b	.	4dd\	]	4G\	.	.	4B\ 4d	-ny	.	4g\	.	4dd/	4b\	Po-	.	4G\	.	4B\	.	4g\	.	4g/ 4dd	4ryy	.	4GG/ 4G	.	4g/ 4dd	4ryy	]	4dd/)	4b\	]	4bb\)	.	4ddd\)	]
!	!	!	!	!	!	!	!	!	!	!	!LO:DY:b	!	!	!	!	!	!	!	!	!	!	!	!	!	!	!	!	!	!	!	!	!	!	!	!	!	!	!	!	!	!	!	!	!
.	.	.	.	.	.	.	p	.	p	.	p	.	.	.	.	.	.	.	.	.	.	.	.	.	.	.	.	.	.	.	.	.	.	.	.	.	.	.	.	.	.	.	.	.
.	.	4r	.	4G\	.	4g\	.	4b\	.	4dd\	.	4r	.	.	4r	.	.	4g\	.	4dd/	4b\	-kor-	p	4r	.	4r	.	4r	.	4r	4ryy	.	4r	.	4r	4ryy	.	4r	4ryy	.	4r	.	4r	.
*	*	*	*	*	*	*	*	*	*	*	*	*	*	*	*	*	*	*	*	*	*	*	*	*	*	*	*	*	*	*	*	*	*	*	*v	*v	*	*	*	*	*	*	*	*
*	*	*	*	*	*	*	*	*	*	*	*	*	*	*	*	*	*	*	*	*	*	*	*	*	*	*	*	*	*	*v	*v	*	*	*	*	*	*v	*v	*	*	*	*	*
=3	=3	=3	=3	=3	=3	=3	=3	=3	=3	=3	=3	=3	=3	=3	=3	=3	=3	=3	=3	=3	=3	=3	=3	=3	=3	=3	=3	=3	=3	=3	=3	=3	=3	=3	=3	=3	=3	=3	=3	=3	=3
1ryy	.	1r	.	4.F#\	.	4.f#\	.	4.a/	.	(4.dd\	.	1r	.	.	1r	.	.	4.f#\	.	4.dd/	4.a\	-nem	.	1r	.	1r	.	1r	.	1r	.	1r	.	1r	.	1r	.	1r	.	1r	.
.	.	.	.	8F#\	.	8f#\	.	8a/	.	8cc\)	.	.	.	.	.	.	.	8f#\	.	8cc/	8a\	.	.	.	.	.	.	.	.	.	.	.	.	.	.	.	.	.	.	.	.
.	.	.	.	8G\L	.	8g\L	.	8g/L	.	8b\L	.	.	.	.	.	.	.	8g\L	.	4b/	8g\L	czu-	.	.	.	.	.	.	.	.	.	.	.	.	.	.	.	.	.	.	.
.	.	.	.	8D#X\	.	8d#X\	.	8f#/	.	8b\	.	.	.	.	.	.	.	8d#X\J	.	.	8f#\J	.	.	.	.	.	.	.	.	.	.	.	.	.	.	.	.	.	.	.	.
.	.	.	.	8E\J	.	8e\J	.	8g/J	.	8b\J	.	.	.	.	.	.	.	8e\	.	8b/	8g\	ciem	.	.	.	.	.	.	.	.	.	.	.	.	.	.	.	.	.	.	.
.	.	.	.	8C/	.	8c\	.	8a/	.	(16.dd\LL	.	.	.	.	.	.	.	8c\	.	16.dd^/LL	8a\	prze-	.	.	.	.	.	.	.	.	.	.	.	.	.	.	.	.	.	.	.
.	.	.	.	.	.	.	.	.	.	32cc\JJk)	.	.	.	.	.	.	.	.	.	32cc/JJk	.	.	.	.	.	.	.	.	.	.	.	.	.	.	.	.	.	.	.	.	.
=4	=4	=4	=4	=4	=4	=4	=4	=4	=4	=4	=4	=4	=4	=4	=4	=4	=4	=4	=4	=4	=4	=4	=4	=4	=4	=4	=4	=4	=4	=4	=4	=4	=4	=4	=4	=4	=4	=4	=4	=4	=4
*	*	*	*	*	*	*	*	*	*	*	*	*	*	*	*	*	*	*	*	*	*	*	*	*	*	*	*	*	*	*^	*	*^	*	*	*	*^	*	*	*	*	*
*	*	*	*	*2\right	*	*	*	*	*	*	*	*	*	*	*	*	*	*	*	*	*	*	*	*	*	*	*	*	*	*	*	*	*	*	*	*	*	*	*	*	*	*	*	*
1ryy	.	2r	.	[2D\	.	[2d\	.	(>4.gS</	.	(4.bS\	.	2r	.	.	2r	.	.	2d\	.	(4.bS/	4.g\	-ię-	.	1r	.	1r	.	1r	.	2r	2ryy	.	2r	2ryy	.	1r	.	2r	2ryy	.	2r	.	2r	.
.	.	.	.	.	.	.	.	8a/)	.	8cc\)	.	.	.	.	.	.	.	.	.	8cc/)	8a\	.	.	.	.	.	.	.	.	.	.	.	.	.	.	.	.	.	.	.	.	.	.	.
.	.	4r	.	4D\]	.	4d\]	.	4f#/	.	4a/	.	4r	.	.	4r	.	.	4d\	.	4a/	4f#\	-ty	.	.	.	.	.	.	.	4r	4ryy	.	4r	4ryy	.	.	.	4r	4ryy	.	4r	.	4r	.
!	!	!	!	!	!	!	!	!	!	!	!	!	!	!	!	!	!	!	!	!	!	!	!	!	!	!	!	!	!	!LO:TX:b:t=Io	!	!	!	!	!	!	!	!	!	!	!	!	!	!
.	.	4G\	.	4G\	.	4d\	.	4g/	.	4b/	.	4G\	.	.	4d\	Pan	.	4g\	.	4b/	4g\	Pan	.	.	.	.	.	.	.	4b/	4g\	.	4G/	4G\	.	.	.	4b/	4g\	.	4gg\	.	4bb\	.
*	*	*	*	*	*	*	*	*	*	*	*	*	*	*	*	*	*	*	*	*v	*v	*	*	*	*	*	*	*	*	*	*	*	*v	*v	*	*	*	*	*	*	*	*	*	*
!!LO:PB:g=original
=5	=5	=5	=5	=5	=5	=5	=5	=5	=5	=5	=5	=5	=5	=5	=5	=5	=5	=5	=5	=5	=5	=5	=5	=5	=5	=5	=5	=5	=5	=5	=5	=5	=5	=5	=5	=5	=5	=5	=5	=5	=5	=5
*	*	*	*	*	*	*	*	*	*	*	*	*	*	*	*	*	*	*	*	*	*	*	*	*	*	*	*	*	*	*	*	*	*	*^	*	*	*	*	*	*	*	*
!	!	!	!	!	!	!	!	!	!	!	!	!	!	!	!	!	!	!	!	!	!	!LO:DY:a	!	!	!	!	!	!	!	!	!	!	!	!	!	!	!	!	!	!	!	!	!
1r	.	4.E\	<	4.E\yy	.	4.G\ 4.g	.	4.cc\	.	4.cc\	.	4.G\	.	.	4.c\	z_gór-	.	4.g\	.	4.cc\	z_gór-	<	2r	.	2r	.	2r	.	4.cc/	4.g\	.	4.E\ 4.e	.	2r	2ryy	.	4.cc/	4.g\	.	4.gg\	.	4.ccc\	.
!	!	!	!	!	!	!	!	!	!	!	!LO:HP:b	!	!	!	!	!	!	!	!	!	!	!	!	!	!	!	!	!	!	!	!	!	!	!	!	!	!	!	!	!	!	!	!
.	.	8BB/	.	8BB/yy	.	8G\ 8g	.	8b\	.	8dd\	<	8BB/	.	.	8d\	-nej	.	8g\	.	8dd\	-nej	.	.	.	.	.	.	.	8dd/	8g\	.	8BB\ 8B	.	.	.	.	8dd/	8g\	.	8gg\	.	8ddd\	.
!	!	!	!	!	!	!	!	!	!	!	!	!	!	!	!	!	!	!	!	!	!	!	!	!	!	!	!	!	!	!	!	!	!	!	!	!	!	!	!	!	!	!	!LO:HP:a
.	.	8.C/L	.	8.C/Lyy	.	8.G\L 8.g	.	8.cc\L	.	8.ee\L	.	8.C/L	.	.	8.c\L	Nie-	.	4g\	.	8.ee\L	Nie-	.	4r	.	4r	.	4r	.	8.ee/L	8.cc\L	<	8.C\L 8.c	.	4r	4ryy	.	8.ee/L	[>4g\	.	[4gg\	.	8.eee\L	<
!	!	!	!	!	!	!	!	!	!	!	!	!	!	!	!	!	!	!	!	!	!	!	!	!	!	!	!	!	!	!	!	!	!	!	!	!	!	!	!LO:HP:a	!	!	!	!
.	.	16BB/Jk	.	16BB/Jkyy	.	16G\Jk 16g	.	16b\Jk	.	16dd\Jk	.	16BB/Jk	.	.	16d\Jk	.	.	.	.	16dd\Jk	.	.	.	.	.	.	.	.	16dd/Jk	16g\Jk	.	16BB\Jk 16B	.	.	.	.	16dd/Jk	.	<	.	.	16ddd\Jk	.
.	.	8.C/L	.	8.C/Lyy	.	8.G\L 8.g	.	8.cc\L	.	8.ee\L	.	8.C/	.	.	8.c\	-ba	.	8.g\	.	8.ee\	-ba	.	8.r	.	8.r	.	8.r	<[	8.ee/L	8.cc\L	.	8.C\L 8.c	.	8.r	8.ryy	.	8.ee/L	8.g\L]	.	8.gg\L]	.	8.eee\L	.
.	.	16AA/Jk	[[	16AA/Jkyy	.	16A\Jk 16f#	.	16d\Jk 16cc	.	16ff#\Jk	[[	16A\	.	.	16d\	Kra-	.	16cc\	.	16ff#\	Kra-	[[	16AA\ 16A	.	16c\	.	16f#X\	.	16ff#X/Jk	16cc\Jk	[	16AA\Jk 16A	.	16dd/	16dd\	.	16ff#/Jk	16cc\Jk	.	16ccc\Jk	.	16fff#\Jk	[[
*	*	*	*	*	*	*	*	*	*	*	*	*	*	*	*	*	*	*	*	*	*	*	*	*	*	*	*	*	*	*	*	*	*	*v	*v	*	*	*	*	*	*	*	*
=6	=6	=6	=6	=6	=6	=6	=6	=6	=6	=6	=6	=6	=6	=6	=6	=6	=6	=6	=6	=6	=6	=6	=6	=6	=6	=6	=6	=6	=6	=6	=6	=6	=6	=6	=6	=6	=6	=6	=6	=6	=6	=6
*	*	*	*	*	*	*	*	*	*	*	*	*	*	*	*^	*	*	*	*	*	*	*	*	*	*	*	*	*	*	*	*	*	*	*	*	*	*	*	*	*	*	*
*tremolo	*	*	*	*	*	*	*	*	*	*	*	*2\right	*	*	*	*	*	*	*	*	*	*	*	*	*	*	*	*	*	*	*	*	*	*	*	*	*	*	*	*	*	*	*
!LO:SIC:o=16Re\LL	!	!	!	!	!	!	!	!	!	!	!LO:DY:b	!	!	!	!	!	!	!	!	!	!	!	!LO:DY:a	!	!	!	!	!	!	!	!	!	!	!LO:DY:a	!	!LO:DY:a	!	!	!LO:DY:a	!	!	!	!LO:DY:a
16GG\LL	f	2GG/	f	2GG/yy	f	2G\ 2g	f	2d/ 2b	.	(4.gg\	f	2G\	.	.	2d/	2B\	-i-	.	2b\	.	(4.gg\	-i-	f	[>2GG/ [2G	.	[2B\	f	[2g\	f	(4.gg/	2b\	f	[>2GG/ [2G	f	[>2g/ [2dd	f	(4.gg/	[2b\	[ f	[2bb\	.	(4.ggg\	f
!LO:SIC:o=16Re\	!	!	!	!	!	!	!	!	!	!	!	!	!	!	!	!	!	!	!	!	!	!	!	!	!	!	!	!	!	!	!	!	!	!	!	!	!	!	!	!	!	!	!
16GG\	.	.	.	.	.	.	.	.	.	.	.	.	.	.	.	.	.	.	.	.	.	.	.	.	.	.	.	.	.	.	.	.	.	.	.	.	.	.	.	.	.	.	.
!LO:SIC:o=16Re\	!	!	!	!	!	!	!	!	!	!	!	!	!	!	!	!	!	!	!	!	!	!	!	!	!	!	!	!	!	!	!	!	!	!	!	!	!	!	!	!	!	!	!
16GG\	.	.	.	.	.	.	.	.	.	.	.	.	.	.	.	.	.	.	.	.	.	.	.	.	.	.	.	.	.	.	.	.	.	.	.	.	.	.	.	.	.	.	.
!LO:SIC:o=16Re\	!	!	!	!	!	!	!	!	!	!	!	!	!	!	!	!	!	!	!	!	!	!	!	!	!	!	!	!	!	!	!	!	!	!	!	!	!	!	!	!	!	!	!
16GG\	.	.	.	.	.	.	.	.	.	.	.	.	.	.	.	.	.	.	.	.	.	.	.	.	.	.	.	.	.	.	.	.	.	.	.	.	.	.	.	.	.	.	.
!LO:SIC:o=16Re\	!	!	!	!	!	!	!	!	!	!	!	!	!	!	!	!	!	!	!	!	!	!	!	!	!	!	!	!	!	!	!	!	!	!	!	!	!	!	!	!	!	!	!
16GG\	.	.	.	.	.	.	.	.	.	.	.	.	.	.	.	.	.	.	.	.	.	.	.	.	.	.	.	.	.	.	.	.	.	.	.	.	.	.	.	.	.	.	.
!LO:SIC:o=16Re\	!	!	!	!	!	!	!	!	!	!	!	!	!	!	!	!	!	!	!	!	!	!	!	!	!	!	!	!	!	!	!	!	!	!	!	!	!	!	!	!	!	!	!
16GG\	.	.	.	.	.	.	.	.	.	.	.	.	.	.	.	.	.	.	.	.	.	.	.	.	.	.	.	.	.	.	.	.	.	.	.	.	.	.	.	.	.	.	.
!LO:SIC:o=16Re\	!	!	!	!	!	!	!	!	!	!	!	!	!	!	!	!	!	!	!	!	!	!	!	!	!	!	!	!	!	!	!	!	!	!	!	!	!	!	!	!	!	!	!
16GG\	.	.	.	.	.	.	.	.	.	16ff#\LL	.	.	.	.	.	.	.	.	.	.	16ff#\LL	.	.	.	.	.	.	.	.	16ff#/LL	.	.	.	.	.	.	16ff#/LL	.	.	.	.	16fff#\LL	.
!LO:SIC:o=16Re\JJ	!	!	!	!	!	!	!	!	!	!	!	!	!	!	!	!	!	!	!	!	!	!	!	!	!	!	!	!	!	!	!	!	!	!	!	!	!	!	!	!	!	!	!
16GG\JJ	.	.	.	.	.	.	.	.	.	16ee\JJ)	.	.	.	.	.	.	.	.	.	.	16ee\JJ)	.	.	.	.	.	.	.	.	16ee/JJ	.	.	.	.	.	.	16ee/JJ	.	.	.	.	16eee\JJ	.
*Xtremolo	*	*	*	*	*	*	*	*	*	*	*	*	*	*	*	*	*	*	*	*	*	*	*	*	*	*	*	*	*	*	*	*	*	*	*	*	*	*	*	*	*	*	*
!LO:SIC:o=4Re\	!	!	!	!	!	!	!	!	!	!	!	!	!	!	!	!	!	!	!	!	!	!	!	!	!	!	!	!	!	!	!	!	!	!	!	!	!	!	!	!	!	!	!
4GG\	.	4G\	.	4G\yy	.	4G\ 4g	.	4d/ 4b	.	4dd\	.	4G\	.	.	4d/	4B\	-ny	.	4b\	.	4dd\	-ny	.	4GG/] 4G]	.	4B\]	.	4g\]	.	4dd/)	4b\	.	4GG/] 4G]	.	4g/] 4dd]	.	4dd/)	4b\]	.	4bb\]	.	4ddd\)	.
4r	.	8G\L	.	8G\Lyy	.	4G\ 4d	.	4G/ 4g	.	4b\	.	8G\L	.	.	4d\	4ryy	O-	.	4g\	.	4b\	O-	.	4r	.	4r	.	4r	.	4r	4ryy	.	8G\L 8g	.	4r	.	(4b/	4g\	.	[4gg\	.	(>4bb\	.
.	.	8Fn\J	.	8Fn\Jyy	.	.	.	.	.	.	.	8Fn\J	.	.	.	.	.	.	.	.	.	.	.	.	.	.	.	.	.	.	.	.	8Fn\J 8fn	.	.	.	.	.	.	.	.	.	.
*	*	*	*	*	*	*	*	*	*	*	*	*	*	*	*v	*v	*	*	*	*	*	*	*	*	*	*	*	*	*	*	*	*	*	*	*	*	*	*	*	*	*	*	*
=7	=7	=7	=7	=7	=7	=7	=7	=7	=7	=7	=7	=7	=7	=7	=7	=7	=7	=7	=7	=7	=7	=7	=7	=7	=7	=7	=7	=7	=7	=7	=7	=7	=7	=7	=7	=7	=7	=7	=7	=7	=7	=7
4r	.	4E\	.	4E\yy	.	4c\	.	4G/ 4g	.	4cc\	.	2E\	.	.	2c\	-gła-	.	2g\	.	(4..cc\	-gła-	.	4r	.	4r	.	4r	.	4r	4ryy	.	4E\ 4e	.	4r	.	4cc/)	4g\	.	4gg\]	.	4ccc\)	.
8.r	.	8.r	.	8.ryy	.	8.r	.	8.r	.	8.r	.	.	.	.	.	.	.	.	.	.	.	.	8.r	.	8.r	.	8.r	.	8.r	8.ryy	.	8.r	.	8.r	.	8.r	8.ryy	.	8.r	.	8.r	.
!LO:SIC:o=16Re\	!	!	!	!	!	!	!	!	!	!	!	!	!	!	!	!	!	!	!	!	!	!	!	!	!	!	!	!	!	!	!	!	!	!	!	!	!	!	!	!	!	!
16GG\	.	16E\	.	16E\yy	.	16E/ 16c	.	16G/ 16g	.	16cc\ 16gg	.	.	.	.	.	.	.	.	.	16gg\)	.	.	16E\	.	16c\	f	16g\	f	16g/	16g\	f	16E\ 16e	.	16cc\ 16ee	.	16cc\ 16gg	16ryy	.	16ccc\	.	16ggg|\	.
!LO:SIC:o=4Re\	!	!	!	!	!	!	!	!	!	!	!	!	!	!	!	!	!	!	!	!	!	!	!	!	!	!	!	!	!	!	!	!	!	!	!	!	!	!	!	!	!	!
4GG\	.	4E\	.	4E\yy	.	4E/ 4c	.	4G/ 4g	.	4cc\ 4gg	.	4E\	.	.	4c\	-sza	.	4g\	.	4gg\	-sza	.	4E\	.	4c\	.	4g\	.	4g/	4g\	.	4E\ 4e	.	4cc\ 4ee	.	4cc\ 4gg	4ryy	.	4ccc\	.	4ggg|\	.
4r	.	4E-X\	.	4E-X\yy	.	4E-X/ 4c	.	4G/ 4g	.	4cc\	.	4E-X\	.	.	4c\	o-	.	4g\	.	4cc\	o-	.	4r	.	4r	.	4r	.	4r	4ryy	.	4E-X\ 4e-X	.	4r	.	4cc\ [4gg	4ryy	.	4r	.	(4ccc\	.
*	*	*	*	*	*	*	*	*	*	*	*	*	*	*	*	*	*	*	*	*	*	*	*	*	*	*	*	*	*	*	*	*	*	*	*	*v	*v	*	*	*	*	*
=8	=8	=8	=8	=8	=8	=8	=8	=8	=8	=8	=8	=8	=8	=8	=8	=8	=8	=8	=8	=8	=8	=8	=8	=8	=8	=8	=8	=8	=8	=8	=8	=8	=8	=8	=8	=8	=8	=8	=8	=8	=8
4r	.	4D\	.	4D\yy	.	4D/ 4d	.	4G/ 4g	.	4b\	.	2D\	.	.	2d\	-gła-	.	2g\	.	(4..b\	-gła-	.	4r	.	4r	.	4r	.	4r	4ryy	.	4D\ 4d	.	4r	.	4b\ 4gg]	.	4r	.	4bb\)	.
!	!	!	!	!	!	!	!	!	!	!	!	!	!	!	!	!	!	!	!	!	!	!	!	!	!	!	!LO:N:vis=8	!	!	!	!	!	!	!	!	!	!	!	!	!	!
8.r	.	8.r	.	8.ryy	.	8.r	.	8.r	.	8.r	.	.	.	.	.	.	.	.	.	.	.	.	8.r	.	8.r	.	8.r	.	8.r	8.ryy	.	8.r	.	8.r	.	8.r	.	8.r	.	8.r	.
!LO:SIC:o=16Re\	!	!	!	!	!	!	!	!	!	!	!	!	!	!	!	!	!	!	!	!	!	!	!	!	!	!	!	!	!	!	!	!	!	!	!	!	!	!	!	!	!
16GG\	.	16D\	.	16D\yy	.	16B\ 16d	.	16G/ 16g	.	16b\ 16gg	.	.	.	.	.	.	.	.	.	16gg\)	.	.	16D\	.	16B\	.	16g\	.	16g/	16g\	.	16D\ 16d	.	16g\ 16dd	.	16b\ 16gg	.	16bb\	.	16ggg|\	.
!LO:SIC:o=4Re\	!	!	!	!	!	!	!	!	!	!	!	!	!	!	!	!	!	!	!	!	!	!	!	!	!	!	!	!	!	!	!	!	!	!	!	!	!	!	!	!	!
4GG\	.	4D\	.	4D\yy	.	4B\ 4d	.	4G/ 4g	.	4b\ 4gg	.	4D\	.	.	4B\	-sza	.	4g\	.	4gg\	-sza	.	4D\	.	4B\	.	4g\	.	4g/	4g\	.	4D\ 4d	.	4g\ 4dd	.	4b\ 4gg	.	4bb\	.	4ggg|\	.
!	!	!	!	!	!	!	!	!	!	!	!LO:DY:b	!	!	!	!	!	!	!	!	!	!	!	!	!	!	!	!	!	!	!	!	!	!	!	!	!	!	!	!	!	!
.	.	.	.	.	.	.	p	.	.	.	p	.	.	.	.	.	.	.	.	.	.	.	.	.	.	.	.	.	.	.	.	.	p	.	.	.	.	.	.	.	.
!	!	!	!	!	!	!	!	!	!	!	!	!	!	!	!	!	!	!	!	!	!	!LO:DY:a	!	!	!	!	!	!	!	!	!	!	!	!	!	!	!	!	!	!	!
4r	.	4D\	p	4D\yy	p	4d\	.	4g/	.	(4b\	.	(4D\	.	.	(4d\	Na-	.	[4g\	.	(4b\	Na-	p	4r	.	4r	.	4r	.	4r	4ryy	.	4D\ 4d	.	4r	.	4g/ 4b	p	4gg\	p	((4bb\	p
*	*	*	*	*	*	*	*	*	*	*	*	*	*	*	*	*	*	*	*	*	*	*	*	*	*	*	*	*	*v	*v	*	*	*	*	*	*	*	*	*	*	*
=9	=9	=9	=9	=9	=9	=9	=9	=9	=9	=9	=9	=9	=9	=9	=9	=9	=9	=9	=9	=9	=9	=9	=9	=9	=9	=9	=9	=9	=9	=9	=9	=9	=9	=9	=9	=9	=9	=9	=9	=9
*	*	*	*	*	*	*	*	*	*	*	*	*	*	*	*	*	*	*	*	*	*	*	*	*	*	*	*	*	*	*	*	*	*	*	*^	*	*	*	*	*
*	*	*	*	*	*	*	*	*	*	*	*	*	*	*	*	*	*	*	*	*	*	*	*	*	*	*	*	*	*	*	*2\right	*	*	*	*	*	*	*	*	*	*
1r	.	2C/	.	2C/yy	.	4.c\ 4.e	.	4.g/	.	4.a\)	.	2C/)	.	.	2e\)	.	.	2g\]	.	4.a\	.	.	1r	.	1r	.	1r	.	1r	.	(2C\ 2c	.	1r	.	(4.a/	2g\	.	(2gg\	.	4.aa\)	.
.	.	.	.	.	.	8c\ 8e	.	8g/	.	8ee\	.	.	.	.	.	.	.	.	.	8ee\)	.	.	.	.	.	.	.	.	.	.	.	.	.	.	8ee/	.	.	.	.	8eee\	.
.	.	2D/	.	2D/yy	.	2d\	.	2f#/	.	4dd\	.	4D\	.	.	4d\	-u-	.	4f#\	.	4dd\	-u-	.	.	.	.	.	.	.	.	.	2D\) 2d	.	.	.	4dd/	2f#\	.	2ff#\)	.	4ddd\	.
.	.	.	.	.	.	.	.	.	.	4cc\	.	4D\	.	.	4A\	-ki	.	4f#\	.	4cc\	-ki	.	.	.	.	.	.	.	.	.	.	.	.	.	4cc/)	.	.	.	.	4ccc\)	.
!!LO:PB:g=original
=10	=10	=10	=10	=10	=10	=10	=10	=10	=10	=10	=10	=10	=10	=10	=10	=10	=10	=10	=10	=10	=10	=10	=10	=10	=10	=10	=10	=10	=10	=10	=10	=10	=10	=10	=10	=10	=10	=10	=10	=10	=10
.	.	.	.	.	.	.	.	.	.	8qcc/	.	.	.	.	.	.	.	.	.	.	.	.	.	.	.	.	.	.	.	.	.	.	.	.	.	.	.	.	.	.	.
*	*	*	*	*	*	*	*	*	*	*	*	*	*	*	*	*	*	*	*	*	*	*	*	*	*	*	*	*	*	*	*	*	*	*	*	*	*	*	*	*2\right	*
1r	.	8E\	.	8E\yy	.	8e\	.	8g/	.	(8b\L	.	2E\	.	.	2B\	.	.	2g\	.	2b\	Świę-	.	1r	.	1r	.	1r	.	1r	.	2.E\ 2.e	.	1r	.	2.b/	2.g\	.	2.gg\	.	[2bb\	.
.	.	8r	.	8ryy	.	8r	.	8r	.	8a#X\	.	.	.	.	.	.	.	.	.	.	.	.	.	.	.	.	.	.	.	.	.	.	.	.	.	.	.	.	.	.	.
.	.	4E\	.	4E\yy	.	4e\	.	4g/	.	8b\	.	.	.	.	.	.	.	.	.	.	.	.	.	.	.	.	.	.	.	.	.	.	.	.	.	.	.	.	.	.	.
.	.	.	.	.	.	.	.	.	.	8cc\J	.	.	.	.	.	.	.	.	.	.	.	.	.	.	.	.	.	.	.	.	.	.	.	.	.	.	.	.	.	.	.
!	!	!	!	!	!	!	!	!	!	!	!	!	!	!	!	!	!	!	!	!	!	!LO:DY:a	!	!	!	!	!	!	!	!	!	!	!	!	!	!	!	!	!	!	!LO:DY:a
.	.	4E\	.	4E\yy	.	4e\	.	4g/	.	4b\)	.	4E\	.	.	4B\	.	.	4g\	.	4b\	-te	<	.	.	.	.	.	.	.	.	.	.	.	.	.	.	.	.	.	4bb\]	<
.	.	4Fn\	.	4Fn\yy	.	4d\	.	[4g/	.	(4b\	.	4Fn\	.	.	4d\	.	.	4g\	.	4b\	o-	[[	.	.	.	.	.	.	.	.	(4Fn\ (>4fn	<[	.	.	(4b/	4g\	.	[4gg\	.	4bb\	[[
.	.	.	.	.	.	.	.	.	.	.	.	.	.	.	.	.	.	.	.	.	.	f	.	.	.	.	.	.	.	.	.	.	.	.	.	.	.	.	.	.	.
=11	=11	=11	=11	=11	=11	=11	=11	=11	=11	=11	=11	=11	=11	=11	=11	=11	=11	=11	=11	=11	=11	=11	=11	=11	=11	=11	=11	=11	=11	=11	=11	=11	=11	=11	=11	=11	=11	=11	=11	=11	=11
*	*	*	*	*	*	*	*	*	*	*	*	*	*	*	*	*	*	*	*	*	*	*	*	*	*	*	*	*	*^	*	*	*	*	*	*	*	*	*	*	*	*
!	!	!	!	!	!	!	!	!	!	!	!	!	!	!	!	!	!	!	!	!	!	!	!	!	!	!	!	!	!	!	!	!	!	!	!	!	!	!	!	!	!	!LO:DY:a
4r	.	4E\	.	4E\yy	.	4c\	.	4g/]	.	4cc\)	.	2E\	.	.	2c\	.	.	2g\	.	(4..cc\	-gła-	.	4r	.	4r	.	4r	.	4r	4ryy	.	4E\) 4e)	f	4ryy	.	4cc/)	4g\	.	4gg\]	.	4..ccc\	f
8.r	.	8.r	.	8.ryy	.	8.r	.	8.r	.	8.r	.	.	.	.	.	.	.	.	.	.	.	.	8.r	.	8.r	.	8.r	.	8.r	8.ryy	.	8.r	.	8.r	.	8.r	8.ryy	.	8.r	.	.	.
!LO:SIC:o=16Re\	!	!	!	!	!	!	!	!	!	!	!	!	!	!	!	!	!	!	!	!	!	!	!	!	!	!	!	!	!	!	!	!	!	!	!	!	!	!	!	!LO:DY:a	!	!
16GG\	.	16E\	f	16E\yy	.	16E/ 16c	.	16G/ 16g	f	16cc\ 16gg	f	.	.	.	.	.	.	.	.	16gg\)	.	.	16E\	.	16c\	.	16g\	f	16g/	16g\	f	16E\ 16e	.	16cc\ 16ee	.	16cc\ 16gg	16ryy	f	16ccc\	f	16ggg|\	.
!LO:SIC:o=4Re\	!	!	!	!	!	!	!	!	!	!	!	!	!	!	!	!	!	!	!	!	!	!	!	!	!	!	!	!	!	!	!	!	!	!	!	!	!	!	!	!	!	!
4GG\	.	4E\	.	4E\yy	.	4E/ 4c	.	4G/ 4g	.	4cc\ 4gg	.	4E\	.	.	4c\	.	.	4g\	.	4gg\	-sza	.	4E\	.	4c\	.	4g\	.	4g/	4g\	.	4E\ 4e	.	4cc\ 4ee	.	4cc\ 4gg	4ryy	.	4ccc\	.	4ggg|\	.
4r	.	(4E-X\	.	(4E-X\yy	.	4E-X/ 4c	.	[4g/	.	(4cc\	.	4E-X\	.	.	4c\	.	.	[4g\	.	4cc\	o-	.	4r	.	4r	.	4r	.	4r	4ryy	.	((>4E-X\ 4e-X	.	4r	.	4cc\ 4gg	4ryy	.	4r	.	(4ccc\	.
*	*	*	*	*	*	*	*	*	*	*	*	*	*	*	*	*	*	*	*	*	*	*	*	*	*	*	*	*	*	*	*	*	*	*	*	*v	*v	*	*	*	*	*
=12	=12	=12	=12	=12	=12	=12	=12	=12	=12	=12	=12	=12	=12	=12	=12	=12	=12	=12	=12	=12	=12	=12	=12	=12	=12	=12	=12	=12	=12	=12	=12	=12	=12	=12	=12	=12	=12	=12	=12	=12	=12
4r	.	4D\)	.	4D\)yy	.	4D/ 4d	.	4g/]	.	4b\)	.	2D\	.	.	2d\	.	.	2g\]	.	(4..b\	-gła-	.	4r	.	4r	.	4r	.	4r	4ryy	.	4D\)) 4d	.	4r	.	4b\ 4gg	.	4r	.	4bb\)	.
8.r	.	8.r	.	8.ryy	.	8.r	.	8.r	.	8.r	.	.	.	.	.	.	.	.	.	.	.	.	8.r	.	8.r	.	8.r	.	8.r	8.ryy	.	8.r	.	8.r	.	8.r	.	8.r	.	8.r	.
!LO:SIC:o=16Re\	!	!	!	!	!	!	!	!	!	!	!	!	!	!	!	!	!	!	!	!	!	!	!	!	!	!	!	!	!	!	!	!	!	!	!	!	!	!	!LO:DY:a	!	!
16GG\	.	16D\	.	16D\yy	.	16B\ 16d	.	16G/ 16g	.	16b\ 16gg	.	.	.	.	.	.	.	.	.	16gg\)	.	.	16D\	.	16B\	.	16g\	.	16g/	16g\	.	16D\ 16d	.	16g\ 16dd	.	16b\ 16gg	f	16bb\	f	16ggg|\	.
!LO:SIC:o=4Re\	!	!	!	!	!	!	!	!	!	!	!	!	!	!	!	!	!	!	!	!	!	!	!	!	!	!	!	!	!	!	!	!	!	!	!	!	!	!	!	!	!
4GG\	.	4D\	.	4D\yy	.	4B\ 4d	.	4G/ 4g	.	4b\ 4gg	.	4D\	.	.	4B\	.	.	4g\	.	4gg\	-sza	.	4D\	.	4B\	.	4g\	.	4g/	4g\	.	4D\ 4d	.	4g\ 4dd	.	4b\ 4gg	.	4bb\	.	4ggg|\	.
!	!	!	!	!	!	!	!	!	!	!	!LO:DY:b	!	!	!	!	!	!	!	!	!	!	!LO:DY:a	!	!	!	!	!	!	!	!	!	!	!	!	!	!	!	!	!	!	!
4r	.	(4D\	.	(4D\yy	.	4B\ 4d	.	4G/ 4g	.	(4b\	f	(4D\	.	.	4d\	.	.	4g\	.	(4b\	Na-	f	4r	.	4r	.	4r	.	(4b/	[>4g\	.	((>4D\ 4d	.	(4g/ 4dd	.	(>4b\ (>4dd	.	[4gg\	.	(4bb\	.
=13	=13	=13	=13	=13	=13	=13	=13	=13	=13	=13	=13	=13	=13	=13	=13	=13	=13	=13	=13	=13	=13	=13	=13	=13	=13	=13	=13	=13	=13	=13	=13	=13	=13	=13	=13	=13	=13	=13	=13	=13	=13
*	*	*	*	*	*	*	*	*	*	*	*	*	*	*	*^	*	*	*	*	*	*	*	*	*	*	*	*	*	*	*	*	*	*	*^	*	*^	*	*	*	*	*
2r	.	4C/)	.	4C/)yy	.	4c\ 4e	.	4A/ 4g	.	4a/)	.	4C/)	.	.	4e\	4ryy	.	.	4g\	.	4a/)	.	.	2r	.	2r	.	2r	.	4a/)	4g\]	.	4C\)) 4c	.	4cc\) 4ee	4ryy	.	4cc\) 4ee)	4ryy	.	4gg\]	.	4aa\)	.
.	.	8.C/L	.	8.C/Lyy	.	8.c\L 8.e	.	8.A/L 8.g	.	8.a/L	.	8.C/	.	.	8.c\ 8.e	8.ryy	.	.	8.g\	.	8.a/	-u-	.	.	.	.	.	.	.	8.a/L	8.g\L	.	8.C\L 8.c	.	8.cc\L 8.ee	8.ryy	.	8.cc\L 8.ee	8.ryy	.	8.gg\L	.	8.aa\L	.
.	.	16C/Jk	.	16C/Jkyy	.	16c\Jk 16e	.	16A/Jk 16g	.	16a/Jk	.	16C/	.	.	16c\ 16e	16ryy	.	.	16g\	.	16a/	-ki	.	.	.	.	.	.	.	16a/Jk	16g\Jk	.	16C\Jk 16c	.	16cc\Jk 16ee	16ryy	.	16cc\Jk 16ee	16ryy	.	16gg\Jk	.	16aa\Jk	.
4r	.	4D\	.	4D\yy	.	4d\	.	4A/ 4f#	.	4dd\	.	2D\	.	.	2d/	2A\	.	.	2f#\	.	2dd\	świę-	.	4r	.	4r	.	4r	.	2dd/	2f#X\	.	2D\ 2d	.	2dd/	2dd\	.	2dd/	2a\	.	2ff#\	.	2ddd\	.
!LO:SIC:o=4Re/	!	!	!	!	!	!	!	!	!	!	!	!	!	!	!	!	!	!	!	!	!	!	!	!	!	!	!	!	!	!	!	!	!	!	!	!	!	!	!	!	!	!	!	!
4C/	f	4D\	.	4D\yy	.	4A\ 4f#	.	4d/ 4a	.	4a\ 4ff#X	.	.	.	.	.	.	.	.	.	.	.	.	.	4DD/ 4D	.	4A\	.	4f#X\	f	.	.	.	.	.	.	.	.	.	.	.	.	.	.	.
*	*	*	*	*	*	*	*	*	*	*	*	*	*	*	*v	*v	*	*	*	*	*	*	*	*	*	*	*	*	*	*	*	*	*	*	*v	*v	*	*	*	*	*	*	*	*
=14	=14	=14	=14	=14	=14	=14	=14	=14	=14	=14	=14	=14	=14	=14	=14	=14	=14	=14	=14	=14	=14	=14	=14	=14	=14	=14	=14	=14	=14	=14	=14	=14	=14	=14	=14	=14	=14	=14	=14	=14	=14	=14
!LO:SIC:o=4Re\	!	!	!	!	!	!	!	!	!	!	!	!	!	!	!	!	!	!	!	!	!	!	!	!	!	!	!	!	!	!	!	!	!	!	!	!	!	!	!	!	!	!
4GG\	.	8GG/	.	8GG/yy	.	8B\L 8g	.	8g/L	.	4b\ 4gg	.	4G\	.	.	4B\ 4d	.	.	4g\	.	4g/	-te	.	4GG/ 4G	.	4B\	.	4g\	.	4g/	4g\	.	4G\ 4B	.	4g/ 4dd	.	4dd/	4b\	.	4gg\	.	4gg\	.
.	.	(8G\L	.	(8G\Lyy	.	(8g\	.	(8g/	.	.	.	.	.	.	.	.	.	.	.	.	.	.	.	.	.	.	.	.	.	.	.	.	.	.	.	.	.	.	.	.	.	.
4r	.	8F#\	.	8F#\yy	.	8f#\	.	8f#/	.	4r	.	4r	.	.	4r	.	.	4r	.	4r	.	.	4r	.	4r	.	4r	.	4r	4ryy	.	4r	.	4r	.	4r	4ryy	.	4r	.	4r	.
.	.	8G\J	.	8G\Jyy	.	8g\J	.	8g/J	.	.	.	.	.	.	.	.	.	.	.	.	.	.	.	.	.	.	.	.	.	.	.	.	.	.	.	.	.	.	.	.	.	.
2r	.	8A\L	.	8A\Lyy	.	8a\L	.	8a/L	.	2r	.	4r	.	.	4r	.	.	2r	.	2r	.	.	2r	.	2r	.	2r	.	2r	2ryy	.	2r	.	2r	.	2r	2ryy	.	2r	.	2r	.
.	.	8G\	.	8G\yy	.	8g\	.	8g/	.	.	.	.	.	.	.	.	.	.	.	.	.	.	.	.	.	.	.	.	.	.	.	.	.	.	.	.	.	.	.	.	.	.
.	.	8Fn\	.	8Fn\yy	.	8fn\	.	8fn/	.	.	.	8r	.	.	8r	.	.	.	.	.	.	.	.	.	.	.	.	.	.	.	.	.	.	.	.	.	.	.	.	.	.	.
.	.	8D\J)	.	8D\J)yy	.	8d\J)	.	8d/J)	.	.	.	8G\	U-	.	8G/	U	.	.	.	.	.	.	.	.	.	.	.	.	.	.	.	.	.	.	.	.	.	.	.	.	.	.
*	*	*	*	*	*	*	*	*	*	*	*	*	*	*	*	*	*	*	*	*	*	*	*	*	*	*	*	*	*v	*v	*	*	*	*	*	*v	*v	*	*	*	*	*
!!LO:PB:g=original
=15	=15	=15	=15	=15	=15	=15	=15	=15	=15	=15	=15	=15	=15	=15	=15	=15	=15	=15	=15	=15	=15	=15	=15	=15	=15	=15	=15	=15	=15	=15	=15	=15	=15	=15	=15	=15	=15	=15	=15	=15
*	*	*	*	*	*	*	*	*	*	*	*	*	*	*	*	*	*	*	*	*	*	*	*	*	*	*	*	*	*	*	*clefC4	*	*	*	*	*	*	*	*	*
!	!	!	!	!	!	!	!LO:DY:a	!	!	!	!	!	!	!	!	!	!	!	!	!	!	!	!	!	!	!	!	!	!	!	!	!	!	!	!	!	!	!	!	!
1r	.	1r	.	4.C/	.	4.G\ 4.e	p	1r	.	1r	.	4.C/	-znaj-	.	4.G\ 4.e	.	.	1r	.	1r	.	.	1r	.	1r	.	1r	.	1r	.	4.G\ 4.e	p	4.c/ 4.cc	p	1r	.	1r	.	1r	.
.	.	.	.	8C/	.	8G\ 8e	.	.	.	.	.	8C/	-cie	.	8G\ 8e	.	.	.	.	.	.	.	.	.	.	.	.	.	.	.	8G\ 8e	.	8c/ 8cc	.	.	.	.	.	.	.
!	!	!	!	!	!	!LO:SIC:v:n=1:s=4fn	!	!	!	!	!	!	!	!	!LO:SIC:v:n=1:s=4fn	!	!	!	!	!	!	!	!	!	!	!	!	!	!	!	!LO:SIC:v:n=1:s=4fn	!	!	!	!	!	!	!	!	!
.	.	.	.	[4C/	.	(4A\ (4f#	.	.	.	.	.	4C/	praw-	.	4A\ 4f#	.	.	.	.	.	.	.	.	.	.	.	.	.	.	.	((4A\ 4f#	.	[4c/ [4cc	.	.	.	.	.	.	.
.	.	.	.	8.C/L]	.	8.G\L)) 8.e	.	.	.	.	.	8.C/	-dę	.	8.G\ 8.e	.	.	.	.	.	.	.	.	.	.	.	.	.	.	.	8.G\L)) 8.e	.	8.c/L] 8.cc]	.	.	.	.	.	.	.
.	.	.	.	16C|</Jk	.	16E|>\Jk 16c	.	.	.	.	.	16C/	wtem	.	16E/ 16c	.	.	.	.	.	.	.	.	.	.	.	.	.	.	.	16E\Jk 16c	.	16c|>/Jk 16cc	.	.	.	.	.	.	.
=16	=16	=16	=16	=16	=16	=16	=16	=16	=16	=16	=16	=16	=16	=16	=16	=16	=16	=16	=16	=16	=16	=16	=16	=16	=16	=16	=16	=16	=16	=16	=16	=16	=16	=16	=16	=16	=16	=16	=16	=16
!	!	!	!	!	!	!LO:SIC:v:n=2:s=4.Fn	!	!	!	!	!	!	!	!	!LO:SIC:v:n=2:s=4.Fn	!	!	!	!	!	!	!	!	!	!	!	!	!	!	!	!LO:SIC:v:n=2:s=4.Fn	!	!	!	!	!	!	!	!	!
1r	.	2r	.	(2GG/	.	(4.F#\ 4.d	.	2r	.	2r	.	2GG/	sło-	.	(>4.F#/ 4.d	.	.	2r	.	2r	.	.	2r	.	2r	.	2r	.	2r	.	4.F#\ 4.d	.	((2G/ 2g	.	2r	.	2r	.	2r	.
.	.	.	.	.	.	8G\) 8e	.	.	.	.	.	.	.	.	8G/) 8e	.	.	.	.	.	.	.	.	.	.	.	.	.	.	.	8G\ 8e	.	.	.	.	.	.	.	.	.
.	.	8r	.	8C/)	.	8E/ 8c	.	8r	.	8r	.	8C/	-wie	.	8E/ 8c	.	.	8r	.	8r	.	.	8r	.	8r	.	8r	.	8r	.	8E\ 8c	.	8c/)) 8cc	.	8r	.	8r	.	8r	.
*	*	*	*	*	*	*tremolo	*	*tremolo	*	*tremolo	*	*	*	*	*	*	*	*	*	*	*	*	*	*	*	*	*	*	*	*	*	*	*	*	*	*	*	*	*	*
!	!	!	!	!	!LO:DY:a	!	!LO:DY:a	!	!	!	!LO:DY:b	!	!	!LO:DY:a	!	!	!LO:DY:a	!	!	!	!	!LO:DY:a	!	!	!	!	!	!LO:DY:a	!	!	!	!	!	!	!	!	!	!	!	!
.	.	8C\L	f <	8C\L	f	16c\LL	f	16e/LL	.	16g/LL	f	8C/	My	f	8E/ 8G	.	f	8e\	.	8g/	My	f	8C\L	.	8c\L	f	8e\L	f <	8e/L 8g	.	8G\L	f <	8e/L 8g	f <	8e'/L 8g	.	8ee'\L	f <	8gg'\L	f
.	.	.	.	.	.	16c\	.	16e/	.	16g/	.	.	.	.	.	.	.	.	.	.	.	.	.	.	.	.	.	.	.	.	.	.	.	.	.	.	.	.	.	.
.	.	8E\	.	8E\	.	16e\	.	16g/	.	16cc/	.	8E\	wszy-	.	8G\ 8c	.	.	8g\	.	8cc\	wszy-	.	8E\	.	8e\	.	8g\	.	8g/ 8cc	.	8B\	.	8g/ 8cc	.	8g'/ 8cc	.	8gg'\	.	8ccc'\	.
.	.	.	.	.	.	16e\	.	16g/	.	16cc/	.	.	.	.	.	.	.	.	.	.	.	.	.	.	.	.	.	.	.	.	.	.	.	.	.	.	.	.	.	.
.	.	8G\J	[[	8G\J	.	16g\	.	16cc/	.	16ee/	.	8G\	-scy	.	8c\ 8e	.	.	8cc\	.	8ee\	-scy	.	8G\J	.	8g\J	.	8cc\J	[[	8cc/J 8ee	.	8d\J	[[	8cc/J 8ee	[[	8cc'/J 8ee	.	8ccc'\J	[[	8eee'\J	.
.	.	.	.	.	.	16g\JJ	.	16cc/JJ	.	16ee/JJ	.	.	.	.	.	.	.	.	.	.	.	.	.	.	.	.	.	.	.	.	.	.	.	.	.	.	.	.	.	.
=17	=17	=17	=17	=17	=17	=17	=17	=17	=17	=17	=17	=17	=17	=17	=17	=17	=17	=17	=17	=17	=17	=17	=17	=17	=17	=17	=17	=17	=17	=17	=17	=17	=17	=17	=17	=17	=17	=17	=17	=17
*	*	*	*	*	*	*	*	*	*	*	*	*	*	*	*	*	*	*	*	*^	*	*	*	*	*	*	*	*	*^	*	*	*	*	*	*^	*	*	*	*	*
*	*	*2\right	*	*	*	*	*	*	*	*	*	*	*	*	*	*	*	*	*	*	*	*	*	*	*	*	*	*	*	*	*	*	*	*	*	*	*	*	*	*	*	*	*
1r	.	2.c\	>	2.c\	.	16cc\LL	.	16ee\LL	.	16gg\LL	.	2.c\	Bra-	.	2.e\ 2.g	.	.	2.cc\	.	2.gg/	2.ee\	bra-	.	2.C\ 2.c	.	2.g\	.	2.cc\	>	2.ee\ 2.gg	2.ryy	.	2.g\	>	2.ee\ 2.gg	>	2.ee\ 2.gg	2.ryy	.	2.eee\	.	2.ggg\	.
.	.	.	.	.	.	16cc\	.	16ee\	.	16gg\	.	.	.	.	.	.	.	.	.	.	.	.	.	.	.	.	.	.	.	.	.	.	.	.	.	.	.	.	.	.	.	.	.
.	.	.	.	.	.	16cc\	.	16ee\	.	16gg\	.	.	.	.	.	.	.	.	.	.	.	.	.	.	.	.	.	.	.	.	.	.	.	.	.	.	.	.	.	.	.	.	.
.	.	.	.	.	.	16cc\	.	16ee\	.	16gg\	.	.	.	.	.	.	.	.	.	.	.	.	.	.	.	.	.	.	.	.	.	.	.	.	.	.	.	.	.	.	.	.	.
.	.	.	.	.	.	16cc\	.	16ee\	.	16gg\	.	.	.	.	.	.	.	.	.	.	.	.	.	.	.	.	.	.	.	.	.	.	.	.	.	.	.	.	.	.	.	.	.
.	.	.	.	.	.	16cc\	.	16ee\	.	16gg\	.	.	.	.	.	.	.	.	.	.	.	.	.	.	.	.	.	.	.	.	.	.	.	.	.	.	.	.	.	.	.	.	.
.	.	.	.	.	.	16cc\	.	16ee\	.	16gg\	.	.	.	.	.	.	.	.	.	.	.	.	.	.	.	.	.	.	.	.	.	.	.	.	.	.	.	.	.	.	.	.	.
.	.	.	.	.	.	16cc\	.	16ee\	.	16gg\	.	.	.	.	.	.	.	.	.	.	.	.	.	.	.	.	.	.	.	.	.	.	.	.	.	.	.	.	.	.	.	.	.
.	.	.	.	.	.	16cc\	.	16ee\	.	16gg\	.	.	.	.	.	.	.	.	.	.	.	.	.	.	.	.	.	.	.	.	.	.	.	.	.	.	.	.	.	.	.	.	.
.	.	.	.	.	.	16cc\	.	16ee\	.	16gg\	.	.	.	.	.	.	.	.	.	.	.	.	.	.	.	.	.	.	.	.	.	.	.	.	.	.	.	.	.	.	.	.	.
.	.	.	.	.	.	16cc\	.	16ee\	.	16gg\	.	.	.	.	.	.	.	.	.	.	.	.	.	.	.	.	.	.	.	.	.	.	.	.	.	.	.	.	.	.	.	.	.
.	.	.	.	.	.	16cc\JJ	.	16ee\JJ	.	16gg\JJ	.	.	.	.	.	.	.	.	.	.	.	.	.	.	.	.	.	.	.	.	.	.	.	.	.	.	.	.	.	.	.	.	.
*	*	*	*	*	*	*Xtremolo	*	*Xtremolo	*	*Xtremolo	*	*	*	*	*	*	*	*	*	*	*	*	*	*	*	*	*	*	*	*	*	*	*	*	*	*	*	*	*	*	*	*	*
.	.	8.G\L	]	8.G\L	.	8.g\L	.	8.cc/L	.	8.ee\L	.	8.G\	-cia	.	8.c\ 8.e	.	.	8.cc\	.	8.ee\	8.ryy	-cia	.	8.GG/L 8.G	.	8.e\L	.	8.g\L	]	8.ee/L	8.cc\L	.	8.d\L	]	8.cc\L 8.ee	]	8.gg/L	8.cc\L	.	8.ccc\L	.	8.eee\L	.
.	.	16E\Jk	.	16E\Jk	.	16e\Jk	.	16g/Jk	.	16cc\Jk	.	16E\	ie-	.	16G\ 16c	.	.	16g\	.	16cc\	16ryy	ie-	.	16EE/Jk 16E	.	16c\Jk	.	16g\Jk	.	16cc/Jk	16cc\Jk	.	16B\Jk	.	16g\Jk 16cc	.	16gg/Jk	16cc\Jk	.	16ccc\Jk	.	16ccc\Jk	.
*	*	*	*	*	*	*	*	*	*	*	*	*	*	*	*	*	*	*	*	*v	*v	*	*	*	*	*	*	*	*	*	*	*	*	*	*	*	*	*	*	*	*	*	*
=18	=18	=18	=18	=18	=18	=18	=18	=18	=18	=18	=18	=18	=18	=18	=18	=18	=18	=18	=18	=18	=18	=18	=18	=18	=18	=18	=18	=18	=18	=18	=18	=18	=18	=18	=18	=18	=18	=18	=18	=18	=18	=18
*	*	*	*	*	*	*	*	*	*	*	*	*	*	*	*^	*	*	*	*	*	*	*	*	*	*	*	*	*	*	*	*	*^	*	*^	*	*	*	*	*	*	*	*
!LO:SIC:o=2ReTT\L	!	!	!	!	!	!	!	!	!	!	!	!	!	!	!	!	!	!	!	!	!	!	!	!	!	!	!	!	!	!	!	!	!	!	!	!	!	!	!	!	!	!	!	!	!
2GGTT\L	f	2G\	.	2G\	.	2.g\	.	(4cc\	.	(2dd\	.	2G\	-steś-	.	2d/	4c\	.	.	2g\	.	2dd\	-ste-	.	[>2GG/ [2G	.	(4c\	.	[2g\	.	[2dd/	4cc\	.	2.D\ 2.d	2.ryy	.	2.g\ 2.dd	2.ryy	.	[2gg/	(>4cc\	.	(4ccc\	.	(2ddd\	.
.	.	.	.	.	.	.	.	8b\L	.	.	.	.	.	.	.	8B\L	.	.	.	.	.	.	.	.	.	8B\L	.	.	.	.	8b\L	.	.	.	.	.	.	.	.	8b\L	.	8bb\L	.	.	.
.	.	.	.	.	.	.	.	8a\J)	.	.	.	.	.	.	.	8A\J	.	.	.	.	.	.	.	.	.	8A\J	.	.	.	.	8a\J	.	.	.	.	.	.	.	.	8a\J	.	8aa\J	.	.	.
!LO:SIC:o=4Re\	!	!	!	!	!	!	!	!	!	!	!	!	!	!	!	!	!	!	!	!	!	!	!	!	!	!	!	!	!	!	!	!	!	!	!	!	!	!	!	!	!	!	!	!	!
4GG\	.	4GG/	.	4GG/	.	.	.	4b\	.	4gg\)	.	4G\	-my	.	4ryy	4B\	.	.	4g\	.	4gg\	-śmy	.	4GG/] 4G]	.	4B\)	.	4g\]	.	4dd/]	4b\	.	.	.	.	.	.	.	4gg/]	4b\)	.	4bb\)	.	4ggg\)	.
*	*	*	*	*	*	*	*	*	*	*	*	*	*	*	*	*	*	*	*	*	*	*	*	*	*	*	*	*	*	*	*	*	*clefC4	*	*	*	*	*	*	*	*	*	*	*	*
4r	.	4r	.	8r	.	8r	.	4r	.	4r	.	8r	.	.	8r	4ryy	.	.	4r	.	4r	.	.	4r	.	4r	.	4r	.	4r	4ryy	.	8r	8ryy	.	8r	8ryy	.	4r	4ryy	.	4r	.	4r	.
.	.	.	.	8G\	.	8G/	.	.	.	.	.	8G\	My	.	8G/	.	My	.	.	.	.	.	.	.	.	.	.	.	.	.	.	.	8G/	8G\	p	8g/	8g\	.	.	.	.	.	.	.	.
*	*	*	*	*	*	*	*	*	*	*	*	*	*	*	*	*	*	*	*	*	*	*	*	*	*	*	*	*	*	*	*	*	*	*	*	*v	*v	*	*	*	*	*	*	*	*
*	*	*	*	*	*	*	*	*	*	*	*	*	*	*	*	*	*	*	*	*	*	*	*	*	*	*	*	*	*	*v	*v	*	*	*	*	*	*	*v	*v	*	*	*	*	*
!!LO:PB:g=original
=19	=19	=19	=19	=19	=19	=19	=19	=19	=19	=19	=19	=19	=19	=19	=19	=19	=19	=19	=19	=19	=19	=19	=19	=19	=19	=19	=19	=19	=19	=19	=19	=19	=19	=19	=19	=19	=19	=19	=19	=19	=19	=19
*	*	*	*	*	*	*^	*	*	*	*	*	*	*	*	*	*	*	*	*	*	*	*	*	*	*	*	*	*	*	*	*	*	*	*	*	*	*	*	*	*	*	*
!	!	!	!	!	!	!	!	!	!	!	!	!	!	!	!	!	!	!	!	!	!	!	!	!	!	!	!	!	!	!	!	!	!	!	!	!	!LO:DY:a	!	!	!	!	!	!
1ryy	.	1r	.	4.C/	.	4.G\ 4.e	2ryy	.	1r	.	1r	.	4.C/	Wszy-	.	4.G\ 4.e	2ryy	.	.	1r	.	1r	.	.	1r	.	1r	.	1r	.	1r	.	4.G\ 4.e	4.ryy	.	4.c/ 4.cc	p	1r	.	1r	.	1r	.
.	.	.	.	8C/	.	8G\ 8e	.	.	.	.	.	.	8C/	-scy	.	8G\ 8e	.	.	.	.	.	.	.	.	.	.	.	.	.	.	.	.	8G\ 8e	8ryy	.	8c/ 8cc	.	.	.	.	.	.	.
.	.	.	.	[4C/	.	(4fn/	8A\L	.	.	.	.	.	4C/	Je-	.	4fn/	8A\L	.	.	.	.	.	.	.	.	.	.	.	.	.	.	.	4fn/	8A\L	.	[>4c/ [4cc	.	.	.	.	.	.	.
.	.	.	.	.	.	.	8A-X\J	.	.	.	.	.	.	.	.	.	8A-X\J	.	.	.	.	.	.	.	.	.	.	.	.	.	.	.	.	8A-X\J	.	.	.	.	.	.	.	.	.
.	.	.	.	8.C/L]	.	8.G/L) 8.e	4ryy	.	.	.	.	.	8.C/	-go	.	8.G/ 8.e	4ryy	.	.	.	.	.	.	.	.	.	.	.	.	.	.	.	8.G\L 8.e	8.ryy	.	8.c/L] 8.cc]	.	.	.	.	.	.	.
.	.	.	.	16C/Jk	.	16E/Jk 16c	.	.	.	.	.	.	16C/	Sy-	.	16E/ 16c	.	.	.	.	.	.	.	.	.	.	.	.	.	.	.	.	16E\Jk 16c	16ryy	.	16c/Jk 16cc	.	.	.	.	.	.	.
*	*	*	*	*	*	*v	*v	*	*	*	*	*	*	*	*	*v	*v	*	*	*	*	*	*	*	*	*	*	*	*	*	*	*	*v	*v	*	*	*	*	*	*	*	*	*
=20	=20	=20	=20	=20	=20	=20	=20	=20	=20	=20	=20	=20	=20	=20	=20	=20	=20	=20	=20	=20	=20	=20	=20	=20	=20	=20	=20	=20	=20	=20	=20	=20	=20	=20	=20	=20	=20	=20	=20	=20
!	!	!	!	!	!	!	!	!	!	!	!	!	!	!LO:DY:a	!	!	!LO:DY:a	!	!	!	!	!	!	!	!	!	!	!	!	!	!	!	!	!	!	!	!	!	!	!
1ryy	.	2r	.	4.AA-X/	.	4.Fn/ 4.d	.	2r	.	2r	.	(4.AA-X/	-no-	>	4.Fn/ 4.d	.	>	2r	.	2r	.	.	1r	.	1r	.	1r	.	1r	.	4.Fn\ 4.d	.	(>4.A-X^>/ 4.a-X	.	2r	.	2r	.	2r	.
.	.	.	.	8GG/	.	8G/ 8e	.	.	.	.	.	8GG/)	.	.	8G/ 8e	.	.	.	.	.	.	.	.	.	.	.	.	.	.	.	8G\ 8e	.	8G/ 8g	.	.	.	.	.	.	.
.	.	4r	.	4C/	.	4E/ 4c	.	4r	.	4r	.	4C/	-wie	]	4E/ 4c	.	]	4r	.	4r	.	.	.	.	.	.	.	.	.	.	4E/ 4c	.	4c/) 4cc	.	4r	.	4r	.	4r	.
*	*	*	*	*	*	*	*	*	*	*	*	*	*	*	*	*	*	*	*	*	*	*	*	*	*	*	*	*	*	*	*clefF4	*	*	*	*	*	*	*	*	*
!	!	!	!	!	!	!	!	!	!	!	!LO:DY:b	!	!	!	!	!	!	!	!	!	!	!	!	!	!	!	!	!	!	!	!	!	!	!	!	!	!	!	!	!
.	.	(4C/	mf	(>4C^/	.	(4c^\	.	[>4g/	.	(4ee^<\	mf	4C/	Mi-	.	4G/ 4c	.	.	4g\	.	4ee\	Mi-	.	.	.	.	.	.	.	.	.	((>4C^<\ 4c	.	4r	.	(4g/ 4ee	.	[4gg^<\	.	(4eee\	mf
=21	=21	=21	=21	=21	=21	=21	=21	=21	=21	=21	=21	=21	=21	=21	=21	=21	=21	=21	=21	=21	=21	=21	=21	=21	=21	=21	=21	=21	=21	=21	=21	=21	=21	=21	=21	=21	=21	=21	=21	=21
*	*	*	*	*	*	*	*	*	*	*	*	*	*	*	*	*	*	*	*	*	*	*	*	*	*	*	*	*	*^	*	*	*	*	*	*^	*	*	*	*	*
1ryy	.	4BB/)	.	4BB/)yy	.	4B\ 4d	.	4g/]	.	4dd\)	.	4BB/	-łoś-	.	4G\ 4d	.	.	4g\	.	4dd\	-ło-	.	1r	.	1r	.	1r	.	2r	1r	.	4BB\)) 4B	.	2r	.	4g/) 4dd	4ryy	.	4gg\]	.	4ddd\)	.
.	.	4E\	.	4E\yy	.	4B\) 4d	.	4e/	.	4g/	.	4E\	-cią	.	4G\ 4B	.	.	4e\	.	4g/	-ścią	.	.	.	.	.	.	.	.	.	.	4E\ 4e	.	.	.	4g/	2e\	.	[2ee\	.	4gg\	.
!	!	!	!	!	!	!	!	!	!	!	!	!	!	!	!	!	!	!	!	!	!	!	!	!	!	!	!	!	!LO:TX:a:t=Io.	!	!	!	!	!	!	!	!	!	!	!	!	!
.	.	4AA/	.	4AA/yy	.	4A\ 4e	.	4e/	.	4cc\	.	4AA/	chwa-	.	4c\	.	.	4e\	.	4cc\	chwa-	.	.	.	.	.	.	.	4cc/	.	.	4AA\ 4A	.	4r	.	4cc/	.	.	.	.	4ccc\	.
.	.	8.BB/L	.	8.BB/Lyy	.	8.B/L 8.d	.	8.e/L	.	8.g#X/L	.	8.BB/	-łę	.	8.d\	.	.	8.e\	.	8.g#X/	-łę	.	.	.	.	.	.	.	8.g#X/L	.	.	8.BB\L 8.B	.	8.dd\L	.	8.g#X/L	8.e\L	.	8.ee\L]	.	8.gg#X\L	.
.	p	16C/Jk	.	16C/Jkyy	.	16c/Jk	.	16e/Jk	.	16a/Jk	.	16C/	Mu	.	16c\	.	.	16e\	.	16a/	Mu	.	.	.	.	.	.	.	16a/Jk	.	.	16C\Jk 16c	.	16cc\Jk 16ee	.	16a/Jk	16e\Jk	.	16ee\Jk	.	16aa\Jk	.
*	*	*	*	*	*	*	*	*	*	*	*	*	*	*	*	*	*	*	*	*	*	*	*	*	*	*	*	*	*v	*v	*	*	*	*	*	*	*	*	*	*	*	*
=22	=22	=22	=22	=22	=22	=22	=22	=22	=22	=22	=22	=22	=22	=22	=22	=22	=22	=22	=22	=22	=22	=22	=22	=22	=22	=22	=22	=22	=22	=22	=22	=22	=22	=22	=22	=22	=22	=22	=22	=22	=22
*	*	*	*	*	*	*	*	*	*	*	*	*	*	*	*	*	*	*	*	*	*	*	*	*	*	*	*	*	*	*	*	*	*^	*	*	*	*	*	*	*	*
!LO:SIC:o=2ReT</	!	!	!	!	!	!	!	!	!	!	!	!	!	!	!	!	!	!	!	!	!	!	!	!	!	!	!	!	!	!	!	!	!	!	!	!	!LO:N:vis=2.	!	!	!	!	!
2CT</	.	2D\	.	2D\yy	.	(2A/	.	(2c/	.	(8gn/L	.	2D\	wznie-	.	2A/	.	.	2c\	.	(>8gn/L	roz-	.	1r	.	1r	.	1r	.	(8gn/L	.	2C\ 2c	.	2dd/	2dd\	.	(2a/	[>2d\	.	(2cc\	.	(8ggn\L	.
.	.	.	.	.	.	.	.	.	.	8f#/	.	.	.	.	.	.	.	.	.	8f#/	.	.	.	.	.	.	.	.	8f#/	.	.	.	.	.	.	.	.	.	.	.	8ff#\	.
.	.	.	.	.	.	.	.	.	.	8e/	.	.	.	.	.	.	.	.	.	8e/	-nieś-	.	.	.	.	.	.	.	8e/	.	.	.	.	.	.	.	.	.	.	.	8ee\	.
.	.	.	.	.	.	.	.	.	.	8f#/J)	.	.	.	.	.	.	.	.	.	8f#/J)	.	.	.	.	.	.	.	.	8f#/J	.	.	.	.	.	.	.	.	.	.	.	8ff#\J)	.
!LO:SIC:o=4Re\	!	!	!	!	!	!	!	!	!	!	!	!	!	!	!	!	!	!	!	!	!	!LO:DY:a	!	!	!	!	!	!	!	!	!	!	!	!	!	!	!	!	!	!	!	!
4GG\	.	4G\	< [	4G\yy	.	4G/)	.	4B/)	.	4g/	.	4G\	-śmy	.	4G/	.	.	4B/	.	4g/	-my	<	.	.	.	.	.	.	4g/)	.	4G\ 4B	.	4g/ 4dd	4ryy	.	4g/)	4d\]	.	4b\)	.	4gg\	.
!	!	!	!	!	!	!	!	!	!LO:DY:a	!	!	!	!	!	!	!	!	!	!	!	!	!	!	!	!	!	!	!	!	!	!	!	!	!	!	!LO:TX:t=P:problem=łuki do pauzy	!	!	!	!	!LO:TX:t=P:problem=łuk do pauzy	!
4r	.	4Fn\	.	4Fn\yy	.	4d\	.	4g/	<[	4b/	.	4Fn\	Mi-	.	4d\	.	.	4g\	.	4b\	Mi-	[[	.	.	.	.	.	.	4r	.	4Fn\ 4fn	<[	4r	4ryy	.	4b/	4g\	.	4r	.	4bb\	.
*	*	*	*	*	*	*	*	*	*	*	*	*	*	*	*	*	*	*	*	*	*	*	*	*	*	*	*	*	*	*	*	*	*v	*v	*	*	*	*	*	*	*	*
*	*	*	*	*	*	*	*	*	*	*	*	*	*	*	*	*	*	*	*	*	*	*	*	*	*	*	*	*	*	*	*	*	*	*	*v	*v	*	*	*	*	*
!!LO:PB:g=original
=23	=23	=23	=23	=23	=23	=23	=23	=23	=23	=23	=23	=23	=23	=23	=23	=23	=23	=23	=23	=23	=23	=23	=23	=23	=23	=23	=23	=23	=23	=23	=23	=23	=23	=23	=23	=23	=23	=23	=23	=23
!	!	!	!	!	!	!	!	!	!	!	!	!	!	!	!	!	!	!	!	!	!	!LO:DY:a	!	!	!	!	!	!	!	!	!	!	!	!	!	!	!	!	!	!
1ryy	.	1ryy	.	1ryy	.	1ryy	.	1ryy	.	1ryy	.	2E\	-ło-	.	2c\	.	.	2g\	.	(4..cc\	-ło-	f	1ryy	.	1ryy	.	1ryy	.	1ryy	.	1ryy	.	1ryy	.	1ryy	.	1ryy	.	1ryy	.
.	.	.	.	.	.	.	.	.	.	.	.	.	.	.	.	.	.	.	.	16gg\)	.	.	.	.	.	.	.	.	.	.	.	.	.	.	.	.	.	.	.	.
.	.	.	.	.	.	.	.	.	.	.	.	4E\	-ścią	.	4c\	.	.	4g\	.	4gg\	-ścią	.	.	.	.	.	.	.	.	.	.	.	.	.	.	.	.	.	.	.
.	.	.	.	.	.	.	.	.	.	.	.	4E-X\	mi-	.	4c\	.	.	4g\	.	4cc\	mi-	.	.	.	.	.	.	.	.	.	.	.	.	.	.	.	.	.	.	.
=24	=24	=24	=24	=24	=24	=24	=24	=24	=24	=24	=24	=24	=24	=24	=24	=24	=24	=24	=24	=24	=24	=24	=24	=24	=24	=24	=24	=24	=24	=24	=24	=24	=24	=24	=24	=24	=24	=24	=24	=24
1ryy	.	1ryy	.	1ryy	.	1ryy	.	1ryy	.	1ryy	.	2D\	-ło-	.	2d\	.	.	2g\	.	(4..b\	-ło-	.	1ryy	.	1ryy	.	1ryy	.	1ryy	.	1ryy	.	1ryy	.	1ryy	.	1ryy	.	1ryy	.
.	.	.	.	.	.	.	.	.	.	.	.	.	.	.	.	.	.	.	.	16gg\)	.	.	.	.	.	.	.	.	.	.	.	.	.	.	.	.	.	.	.	.
.	.	.	.	.	.	.	.	.	.	.	.	4D\	-ścią	.	4B\	.	.	4g\	.	4gg\	-ścią	.	.	.	.	.	.	.	.	.	.	.	.	.	.	.	.	.	.	.
!	!	!	!	!	!	!	!	!	!	!	!	!	!	!	!	!	!	!	!	!	!	!LO:DY:a	!	!	!	!	!	!	!	!	!	!	!	!	!	!	!	!	!	!
.	.	.	.	.	.	.	.	.	.	.	.	(4D\	chwa-	.	(4d\	.	.	4g\	.	(4b\	chwa-	p	.	.	.	.	.	.	.	.	.	.	.	.	.	.	.	.	.	.
=25	=25	=25	=25	=25	=25	=25	=25	=25	=25	=25	=25	=25	=25	=25	=25	=25	=25	=25	=25	=25	=25	=25	=25	=25	=25	=25	=25	=25	=25	=25	=25	=25	=25	=25	=25	=25	=25	=25	=25	=25
1ryy	.	1ryy	.	1ryy	.	1ryy	.	1ryy	.	1ryy	.	2C/)	.	.	2e\)	.	.	2g\	.	4.a/	.	.	1ryy	.	1ryy	.	1ryy	.	1ryy	.	1ryy	.	1ryy	.	1ryy	.	1ryy	.	1ryy	.
.	.	.	.	.	.	.	.	.	.	.	.	.	.	.	.	.	.	.	.	8ee\)	.	.	.	.	.	.	.	.	.	.	.	.	.	.	.	.	.	.	.	.
.	.	.	.	.	.	.	.	.	.	.	.	4D/	-łę	.	4d\	.	.	4f#\	.	4dd\	-łę	.	.	.	.	.	.	.	.	.	.	.	.	.	.	.	.	.	.	.
.	.	.	.	.	.	.	.	.	.	.	.	4D/	Mu	.	4A\	.	.	4f#\	.	4cc\	Mu	.	.	.	.	.	.	.	.	.	.	.	.	.	.	.	.	.	.	.
=26	=26	=26	=26	=26	=26	=26	=26	=26	=26	=26	=26	=26	=26	=26	=26	=26	=26	=26	=26	=26	=26	=26	=26	=26	=26	=26	=26	=26	=26	=26	=26	=26	=26	=26	=26	=26	=26	=26	=26	=26
1ryy	.	1ryy	.	1ryy	.	1ryy	.	1ryy	.	1ryy	.	2E\	wznie-	.	2B\	.	.	2g\	.	2b\	wznie-	.	1ryy	.	1ryy	.	1ryy	.	1ryy	.	1ryy	.	1ryy	.	1ryy	.	1ryy	.	1ryy	.
!	!	!	!	!	!	!	!	!	!	!	!	!	!	!	!	!	!	!	!	!	!	!LO:DY:a	!	!	!	!	!	!	!	!	!	!	!	!	!	!	!	!	!	!
.	.	.	.	.	.	.	.	.	.	.	.	4E\	-śmy	.	4B\	.	.	4g\	.	4b\	-śmy	<	.	.	.	.	.	.	.	.	.	.	.	.	.	.	.	.	.	.
.	.	.	.	.	.	.	.	.	.	.	.	4Fn\	Mi-	.	4d\	.	.	4g\	.	4b\	Mi-	[[	.	.	.	.	.	.	.	.	.	.	.	.	.	.	.	.	.	.
=27	=27	=27	=27	=27	=27	=27	=27	=27	=27	=27	=27	=27	=27	=27	=27	=27	=27	=27	=27	=27	=27	=27	=27	=27	=27	=27	=27	=27	=27	=27	=27	=27	=27	=27	=27	=27	=27	=27	=27	=27
!	!	!	!	!	!	!	!	!	!	!	!	!	!	!	!	!	!	!	!	!	!	!LO:DY:a	!	!	!	!	!	!	!	!	!	!	!	!	!	!	!	!	!	!
1ryy	.	1ryy	.	1ryy	.	1ryy	.	1ryy	.	1ryy	.	2E\	-ło-	.	2c\	.	.	2g\	.	(4..cc\	-ło-	f	1ryy	.	1ryy	.	1ryy	.	1ryy	.	1ryy	.	1ryy	.	1ryy	.	1ryy	.	1ryy	.
.	.	.	.	.	.	.	.	.	.	.	.	.	.	.	.	.	.	.	.	16gg\)	.	.	.	.	.	.	.	.	.	.	.	.	.	.	.	.	.	.	.	.
.	.	.	.	.	.	.	.	.	.	.	.	4E\	-ścią	.	4c\	.	.	4g\	.	4gg\	-ścią	.	.	.	.	.	.	.	.	.	.	.	.	.	.	.	.	.	.	.
.	.	.	.	.	.	.	.	.	.	.	.	4E-X\	Mi-	.	4c\	.	.	4g\	.	4cc\	Mi-	.	.	.	.	.	.	.	.	.	.	.	.	.	.	.	.	.	.	.
!!LO:PB:g=original
=28	=28	=28	=28	=28	=28	=28	=28	=28	=28	=28	=28	=28	=28	=28	=28	=28	=28	=28	=28	=28	=28	=28	=28	=28	=28	=28	=28	=28	=28	=28	=28	=28	=28	=28	=28	=28	=28	=28	=28	=28
1ryy	.	1ryy	.	1ryy	.	1ryy	.	1ryy	.	1ryy	.	2D\	-ło-	.	2d\	.	.	2g\	.	(4..b\	-ło-	.	1ryy	.	1ryy	.	1ryy	.	1ryy	.	1ryy	.	1ryy	.	1ryy	.	1ryy	.	1ryy	.
.	.	.	.	.	.	.	.	.	.	.	.	.	.	.	.	.	.	.	.	16gg\)	-ścią	.	.	.	.	.	.	.	.	.	.	.	.	.	.	.	.	.	.	.
.	.	.	.	.	.	.	.	.	.	.	.	4D\	-ścią	.	4B\	.	.	4g\	.	4gg\	.	.	.	.	.	.	.	.	.	.	.	.	.	.	.	.	.	.	.	.
.	.	.	.	.	.	.	.	.	.	.	.	4r	.	.	4r	.	.	4r	.	4r	.	.	.	.	.	.	.	.	.	.	.	.	.	.	.	.	.	.	.	.
=29	=29	=29	=29	=29	=29	=29	=29	=29	=29	=29	=29	=29	=29	=29	=29	=29	=29	=29	=29	=29	=29	=29	=29	=29	=29	=29	=29	=29	=29	=29	=29	=29	=29	=29	=29	=29	=29	=29	=29	=29
*	*	*	*	*	*	*	*	*	*	*	*	*	*	*	*^	*	*	*	*	*	*	*	*	*	*	*	*	*	*	*	*	*	*	*	*	*	*	*	*	*
1ryy	.	1ryy	.	1ryy	.	1ryy	.	1ryy	.	1ryy	.	4C/	Chwa-	.	4c\ 4e	4ryy	.	.	4g\	.	4a/	Chwa-	.	1ryy	.	1ryy	.	1ryy	.	1ryy	.	1ryy	.	1ryy	.	1ryy	.	1ryy	.	1ryy	.
.	.	.	.	.	.	.	.	.	.	.	.	8.C/	-łę	.	8.c\ 8.e	8.ryy	.	.	8.g\	.	8.a/	-łę	.	.	.	.	.	.	.	.	.	.	.	.	.	.	.	.	.	.	.
.	.	.	.	.	.	.	.	.	.	.	.	16C/	Mu	.	16c\ 16e	16ryy	.	.	16g\	.	16a/	Mu	.	.	.	.	.	.	.	.	.	.	.	.	.	.	.	.	.	.	.
.	.	.	.	.	.	.	.	.	.	.	.	2D/	wznie-	.	2d/	2A\	.	.	2f#\	.	2dd\	wznie-	.	.	.	.	.	.	.	.	.	.	.	.	.	.	.	.	.	.	.
=30	=30	=30	=30	=30	=30	=30	=30	=30	=30	=30	=30	=30	=30	=30	=30	=30	=30	=30	=30	=30	=30	=30	=30	=30	=30	=30	=30	=30	=30	=30	=30	=30	=30	=30	=30	=30	=30	=30	=30	=30	=30
*	*	*	*	*	*	*	*	*	*	*	*	*	*	*	*	*	*	*	*	*	*	*	*	*	*	*	*	*	*	*^	*	*	*	*^	*	*^	*	*	*	*	*
!LO:SIC:o=4Re\	!	!	!	!	!	!	!	!	!	!	!	!	!	!	!	!	!	!	!	!	!	!	!	!	!	!	!	!	!	!	!	!	!	!	!	!	!	!	!	!	!	!	!	!
4GG\	.	4GG/	.	4GG/yy	.	4B\ 4g	.	4g/	.	4d\ 4b 4gg	.	4G\	-śmy.	.	4d/	4B\	.	.	4g\	.	4g/	-smy.	.	4GG\ 4G	.	4B\	.	4g\	.	4g/	4g\	.	4G\ 4B	.	4g/ 4dd	4ryy	.	4dd/	4b\	.	4gg\	.	4gg\	.
4r	.	4r	.	4ryy	.	4r	.	4r	.	4r	.	4r	.	.	4r	4ryy	.	.	4r	.	4r	.	.	4r	.	4r	.	4r	.	4r	4ryy	.	4r	.	4g/	4g\	p	4r	4ryy	.	4r	.	4r	.
2r	.	2r	.	2ryy	.	2r	.	2r	.	2r	.	2r	.	.	2r	2ryy	.	.	2r	.	2r	.	.	2r	.	2r	.	2r	.	2r	2ryy	.	2r	.	2g\ 2gg	2ryy	.	8r	8ryy	.	8r	.	8r	.
.	.	.	.	.	.	.	.	.	.	.	.	.	.	.	.	.	.	.	.	.	.	.	.	.	.	.	.	.	.	.	.	.	.	.	.	.	.	(8b\L 8dd	8ryy	p	(8gg\L	.	(8gg\L	p
.	.	.	.	.	.	.	.	.	.	.	.	.	.	.	.	.	.	.	.	.	.	.	.	.	.	.	.	.	.	.	.	.	.	.	.	.	.	8cc\ 8ee	8ryy	.	8aa\	.	8aa\	.
.	.	.	.	.	.	.	.	.	.	.	.	.	.	.	.	.	.	.	.	.	.	.	.	.	.	.	.	.	.	.	.	.	.	.	.	.	.	8dd\J 8ff#	8ryy	.	8bb\J)	.	8bb\J	.
*	*	*	*	*	*	*	*	*	*	*	*	*	*	*	*v	*v	*	*	*	*	*	*	*	*	*	*	*	*	*	*v	*v	*	*	*	*v	*v	*	*	*	*	*	*	*	*
=31	=31	=31	=31	=31	=31	=31	=31	=31	=31	=31	=31	=31	=31	=31	=31	=31	=31	=31	=31	=31	=31	=31	=31	=31	=31	=31	=31	=31	=31	=31	=31	=31	=31	=31	=31	=31	=31	=31	=31	=31	=31
1r	.	1r	.	1ryy	.	1r	.	1r	.	1r	.	1r	.	.	1r	.	.	1r	.	1r	.	.	1r	.	1r	.	1r	.	1r	.	1r	.	1g 1gg	.	8ee\L) 8gg	8ryy	.	(8ccc\L	.	8ccc\L	.
.	.	.	.	.	.	.	.	.	.	.	.	.	.	.	.	.	.	.	.	.	.	.	.	.	.	.	.	.	.	.	.	.	.	.	8dd\J 8ff#	8ryy	.	8bb\J)	.	8bb\J)	.
.	.	.	.	.	.	.	.	.	.	.	.	.	.	.	.	.	.	.	.	.	.	.	.	.	.	.	.	.	.	.	.	.	.	.	2ee/	2cc\	.	2aa\	.	2aa\	.
.	.	.	.	.	.	.	.	.	.	.	.	.	.	.	.	.	.	.	.	.	.	.	.	.	.	.	.	.	.	.	.	.	.	.	4dd/	4b\	.	(4gg\	.	[4gg\	.
=32	=32	=32	=32	=32	=32	=32	=32	=32	=32	=32	=32	=32	=32	=32	=32	=32	=32	=32	=32	=32	=32	=32	=32	=32	=32	=32	=32	=32	=32	=32	=32	=32	=32	=32	=32	=32	=32	=32	=32	=32	=32
*	*	*	*	*	*	*	*	*	*	*	*	*	*	*	*	*	*	*	*	*	*	*	*	*	*	*	*	*	*	*	*	*	*^	*	*	*	*	*	*	*	*
1r	.	1r	.	1ryy	.	1r	.	1r	.	1r	.	1r	.	.	1r	.	.	1r	.	1r	.	.	1r	.	1r	.	1r	.	1r	.	1r	.	1dd	1dd	.	1cc	1a	.	4gg\	.	4gg\]	.
.	.	.	.	.	.	.	.	.	.	.	.	.	.	.	.	.	.	.	.	.	.	.	.	.	.	.	.	.	.	.	.	.	.	.	.	.	.	.	8ff#\L	.	8ff#\L	.
.	.	.	.	.	.	.	.	.	.	.	.	.	.	.	.	.	.	.	.	.	.	.	.	.	.	.	.	.	.	.	.	.	.	.	.	.	.	.	8ee\J)	.	8ee\J	.
.	.	.	.	.	.	.	.	.	.	.	.	.	.	.	.	.	.	.	.	.	.	.	.	.	.	.	.	.	.	.	.	.	.	.	.	.	.	.	(8ff#\L	.	(8ff#\L	.
.	.	.	.	.	.	.	.	.	.	.	.	.	.	.	.	.	.	.	.	.	.	.	.	.	.	.	.	.	.	.	.	.	.	.	.	.	.	.	8dd\)	.	8dd\)	.
.	.	.	.	.	.	.	.	.	.	.	.	.	.	.	.	.	.	.	.	.	.	.	.	.	.	.	.	.	.	.	.	.	.	.	.	.	.	.	8dd'\	.	8ddd'\	.
.	.	.	.	.	.	.	.	.	.	.	.	.	.	.	.	.	.	.	.	.	.	.	.	.	.	.	.	.	.	.	.	.	.	.	.	.	.	.	8dd'\J	.	8ddd'\J	.
*	*	*	*	*	*	*	*	*	*	*	*	*	*	*	*	*	*	*	*	*	*	*	*	*	*	*	*	*	*	*	*	*	*v	*v	*	*	*	*	*	*	*	*
*	*	*	*	*	*	*	*	*	*	*	*	*	*	*	*	*	*	*	*	*	*	*	*	*	*	*	*	*	*	*	*	*	*	*	*v	*v	*	*	*	*	*
!!LO:PB:g=original
=33	=33	=33	=33	=33	=33	=33	=33	=33	=33	=33	=33	=33	=33	=33	=33	=33	=33	=33	=33	=33	=33	=33	=33	=33	=33	=33	=33	=33	=33	=33	=33	=33	=33	=33	=33	=33	=33	=33	=33	=33
1ryy	.	2r	.	2r	.	2r	.	2r	.	2r	.	1r	.	.	1r	.	.	1r	.	1r	.	.	1r	.	1r	.	1r	.	1r	.	1r	.	2g/ 2dd	.	2g/ 2b	.	2dd\	.	(8ddd\L	.
.	.	.	.	.	.	.	.	.	.	.	.	.	.	.	.	.	.	.	.	.	.	.	.	.	.	.	.	.	.	.	.	.	.	.	.	.	.	.	8bb\J)	.
.	.	.	.	.	.	.	.	.	.	.	.	.	.	.	.	.	.	.	.	.	.	.	.	.	.	.	.	.	.	.	.	.	.	.	.	.	.	.	4gg\	.
!	!	!	!	!	!	!LO:DY:b	!	!	!	!	!	!	!	!	!	!	!	!	!	!	!	!	!	!	!	!	!	!	!	!	!	!	!	!	!	!	!	!	!	!
.	.	[2GG/	pp	[>2GG\ [2G	pp	8r	.	8r	.	8r	.	.	.	.	.	.	.	.	.	.	.	.	.	.	.	.	.	.	.	.	.	.	2r	.	2r	.	2r	.	2r	.
!	!	!	!	!	!	!	!	!	!	!	!LO:DY:b	!	!	!	!	!	!	!	!	!	!	!	!	!	!	!	!	!	!	!	!	!	!	!	!	!	!	!	!	!
.	.	.	.	.	.	(<8B/L	pp	(>8d/L	pp	(>8g/L	pp	.	.	.	.	.	.	.	.	.	.	.	.	.	.	.	.	.	.	.	.	.	.	.	.	.	.	.	.	.
.	.	.	.	.	.	8c/	.	8e/	.	8a/	.	.	.	.	.	.	.	.	.	.	.	.	.	.	.	.	.	.	.	.	.	.	.	.	.	.	.	.	.	.
.	.	.	.	.	.	8d/J	.	8f#/J	.	8b/J	.	.	.	.	.	.	.	.	.	.	.	.	.	.	.	.	.	.	.	.	.	.	.	.	.	.	.	.	.	.
=34	=34	=34	=34	=34	=34	=34	=34	=34	=34	=34	=34	=34	=34	=34	=34	=34	=34	=34	=34	=34	=34	=34	=34	=34	=34	=34	=34	=34	=34	=34	=34	=34	=34	=34	=34	=34	=34	=34	=34	=34
1ryy	.	1GG]	.	1GG] 1G]	.	(>8e\L)	.	8g/L	.	8cc/L	.	1ryy	.	.	1ryy	.	.	1ryy	.	1ryy	.	.	1ryy	.	1ryy	.	1ryy	.	1ryy	.	1ryy	.	1ryy	.	1ryy	.	1ryy	.	1ryy	.
.	.	.	.	.	.	8d\J	.	8f#/J	.	8b/J	.	.	.	.	.	.	.	.	.	.	.	.	.	.	.	.	.	.	.	.	.	.	.	.	.	.	.	.	.	.
.	.	.	.	.	.	2c\)	.	4e/	.	2a/)	.	.	.	.	.	.	.	.	.	.	.	.	.	.	.	.	.	.	.	.	.	.	.	.	.	.	.	.	.	.
.	.	.	.	.	.	.	.	4e-X/)	.	.	.	.	.	.	.	.	.	.	.	.	.	.	.	.	.	.	.	.	.	.	.	.	.	.	.	.	.	.	.	.
.	.	.	.	.	.	4B/	.	4d/	.	(>4g/	.	.	.	.	.	.	.	.	.	.	.	.	.	.	.	.	.	.	.	.	.	.	.	.	.	.	.	.	.	.
=35	=35	=35	=35	=35	=35	=35	=35	=35	=35	=35	=35	=35-	=35	=35	=35-	=35	=35	=35-	=35	=35-	=35	=35	=35-	=35	=35-	=35	=35-	=35	=35-	=35	=35-	=35	=35-	=35	=35-	=35	=35-	=35	=35-	=35
1ryy	.	2.D\	.	2.D\	.	2.A/	.	2.c/	.	4g/	.	1ryy	.	.	1ryy	.	.	1ryy	.	1ryy	.	.	1ryy	.	1ryy	.	1ryy	.	1ryy	.	1ryy	.	1ryy	.	1ryy	.	1ryy	.	1ryy	.
.	.	.	.	.	.	.	.	.	.	8f#/L	.	.	.	.	.	.	.	.	.	.	.	.	.	.	.	.	.	.	.	.	.	.	.	.	.	.	.	.	.	.
.	.	.	.	.	.	.	.	.	.	8e/J)	.	.	.	.	.	.	.	.	.	.	.	.	.	.	.	.	.	.	.	.	.	.	.	.	.	.	.	.	.	.
!	!	!	!	!	!	!	!	!	!	!LO:TX:t=P:problem=mixed beam	!	!	!	!	!	!	!	!	!	!	!	!	!	!	!	!	!	!	!	!	!	!	!	!	!	!	!	!	!	!
.	.	.	.	.	.	.	.	.	.	(8f#/L	.	.	.	.	.	.	.	.	.	.	.	.	.	.	.	.	.	.	.	.	.	.	.	.	.	.	.	.	.	.
.	.	.	.	.	.	.	.	.	.	8d/)	.	.	.	.	.	.	.	.	.	.	.	.	.	.	.	.	.	.	.	.	.	.	.	.	.	.	.	.	.	.
.	.	8D\L	.	(8D'\L	.	(8A'/L	.	(8c'/L	.	(>8dd'>\	.	.	.	.	.	.	.	.	.	.	.	.	.	.	.	.	.	.	.	.	.	.	.	.	.	.	.	.	.	.
.	.	8D\J	.	8D'\J)	.	8A'/J)	.	8c'/J)	.	8dd'>\J)	.	.	.	.	.	.	.	.	.	.	.	.	.	.	.	.	.	.	.	.	.	.	.	.	.	.	.	.	.	.
=36	=36	=36	=36	=36	=36	=36	=36	=36	=36	=36	=36	=36-	=36	=36	=36-	=36	=36	=36-	=36	=36-	=36	=36	=36-	=36	=36-	=36	=36-	=36	=36-	=36	=36-	=36	=36-	=36	=36-	=36	=36-	=36	=36-	=36
1ryy	.	4G\	.	4G\	.	4G/	.	4B/	.	4g/	.	1ryy	.	.	1ryy	.	.	1ryy	.	1ryy	.	.	1ryy	.	1ryy	.	1ryy	.	1ryy	.	1ryy	.	1ryy	.	1ryy	.	1ryy	.	1ryy	.
.	.	4r	.	4r	.	4r	.	4r	.	4r	.	.	.	.	.	.	.	.	.	.	.	.	.	.	.	.	.	.	.	.	.	.	.	.	.	.	.	.	.	.
.	.	8C\	.	8C/yy	.	8c\	.	8e-X/	.	8g/	.	.	.	.	.	.	.	.	.	.	.	.	.	.	.	.	.	.	.	.	.	.	.	.	.	.	.	.	.	.
.	.	8r	.	8ryy	.	8r	.	8r	.	8r	.	.	.	.	.	.	.	.	.	.	.	.	.	.	.	.	.	.	.	.	.	.	.	.	.	.	.	.	.	.
.	.	8E-X\	.	8E-X\yy	.	8c\	.	8e-/	.	8g/	.	.	.	.	.	.	.	.	.	.	.	.	.	.	.	.	.	.	.	.	.	.	.	.	.	.	.	.	.	.
.	.	8r	.	8ryy	.	8r	.	8r	.	8r	.	.	.	.	.	.	.	.	.	.	.	.	.	.	.	.	.	.	.	.	.	.	.	.	.	.	.	.	.	.
=37	=37	=37	=37	=37	=37	=37	=37	=37	=37	=37	=37	=37-	=37	=37	=37-	=37	=37	=37-	=37	=37-	=37	=37	=37-	=37	=37-	=37	=37-	=37	=37-	=37	=37-	=37	=37-	=37	=37-	=37	=37-	=37	=37-	=37
1ryy	.	1G;	.	1G;yy	.	1B;	.	1d;	.	1g;	.	1ryy	.	.	1ryy	.	.	1ryy	.	1ryy	.	.	1ryy	.	1ryy	.	1ryy	.	1ryy	.	1ryy	.	1ryy	.	1ryy	.	1ryy	.	1ryy	.
==	==	==	==	==	==	==	==	==	==	==	==	==-	==	==	==-	==	==	==-	==	==-	==	==	==-	==	==-	==	==-	==	==-	==	==-	==	==-	==	==-	==	==-	==	==-	==
*-	*-	*-	*-	*-	*-	*-	*-	*-	*-	*-	*-	*-	*-	*-	*-	*-	*-	*-	*-	*-	*-	*-	*-	*-	*-	*-	*-	*-	*-	*-	*-	*-	*-	*-	*-	*-	*-	*-	*-	*-
!!!system-decoration: [(s1,s2,s3)]s4,s5,s6[(s7,s8,s9)][(s10,s11,s12,s13)][(s14,s15,s16)][(s17,s18)]s19
!!!RDF**kern: < = below
!!!RDF**kern: > = above
!!!RDF**kern: | = vertical stroke
!!!ENC: Marta Chmielewska
!!!END: 2021-04-29
!!!ENC: Krzysztof Stępień
!!!END: 2021-04-13
!!!YEC: Copyright 2022 Narodowy Instytut Fryderyka Chopina (https://polishscores.org)
!!!YEM: License CC-BY-4.0 (https://creativecommons.org/licenses/by/4.0)
